;FLAVOR:Marlin
;TIME:7981
;Filament used: 9.02292m
;Layer height: 0.28
;MINX:24.7
;MINY:78.2
;MINZ:0.28
;MAXX:210.3
;MAXY:156.8
;MAXZ:15.96
;POSTPROCESSED
;Generated with Cura_SteamEngine 4.10.0
M140 S70
M105
M190 S70
M104 S230
M105
M109 S230
M82 ;absolute extrusion mode
; Ender 3 Custom Start G-code
G92 E0 ; Reset Extruder
G28 ; Home all axes
G1 Z2.0 F3000 ; Move Z Axis up little to prevent scratching of Heat Bed
G1 X0.1 Y20 Z0.3 F5000.0 ; Move to start position
G1 X0.1 Y200.0 Z0.3 F1500.0 E15 ; Draw the first line
G1 X0.4 Y200.0 Z0.3 F5000.0 ; Move to side a little
G1 X0.4 Y20 Z0.3 F1500.0 E30 ; Draw the second line
G92 E0 ; Reset Extruder
G1 Z2.0 F3000 ; Move Z Axis up little to prevent scratching of Heat Bed
G1 X5 Y20 Z0.3 F5000.0 ; Move over to prevent blob squish
G92 E0
G92 E0
G1 F2700 E-6
;LAYER_COUNT:57
;LAYER:0
M107
M204 S500
M205 X8 Y8
G0 F7500 X95.569 Y114.1 Z0.28
;TYPE:SKIRT
G1 F2700 E0
G1 F1500 X95.53 Y114.325 E0.0101
G1 X95.39 Y115.532 E0.06385
G1 X95.312 Y116.831 E0.12142
G1 X95.308 Y117.989 E0.17264
G1 X95.37 Y119.227 E0.22748
G1 X95.482 Y120.321 E0.27612
G1 X95.541 Y120.7 E0.29309
G1 X139.463 Y120.7 E2.23602
G1 X139.568 Y119.904 E2.27154
G1 X139.641 Y119.096 E2.30743
G1 X139.678 Y118.465 E2.33539
G1 X139.694 Y117.969 E2.35734
G1 X139.7 Y117.52 E2.37721
G1 X139.691 Y116.895 E2.40486
G1 X139.66 Y116.169 E2.437
G1 X139.596 Y115.362 E2.47281
G1 X139.466 Y114.299 E2.52018
G1 X139.432 Y114.1 E2.52912
G1 X95.569 Y114.1 E4.46944
G0 F7500 X95.135 Y114.267
G1 F1500 X94.992 Y115.497 E4.52421
G1 X94.912 Y116.824 E4.58302
G1 X94.908 Y117.988 E4.63451
G1 X94.972 Y119.269 E4.69125
G1 X95.084 Y120.364 E4.73994
G1 X95.199 Y121.1 E4.77289
G1 X139.808 Y121.1 E6.74622
G1 X139.831 Y120.967 E6.75219
G1 X139.965 Y119.951 E6.79752
G1 X140.04 Y119.125 E6.83421
G1 X140.078 Y118.461 E6.86363
G1 X140.094 Y117.987 E6.88461
G1 X140.1 Y117.5 E6.90616
G1 X140.091 Y116.871 E6.93398
G1 X140.06 Y116.158 E6.96555
G1 X139.995 Y115.329 E7.00234
G1 X139.863 Y114.244 E7.05069
G1 X139.769 Y113.7 E7.07511
G1 X95.232 Y113.7 E9.04525
G1 X95.135 Y114.267 E9.07069
G0 F7500 X94.736 Y114.224
G1 F1500 X94.594 Y115.445 E9.12507
G1 X94.512 Y116.816 E9.18582
G1 X94.508 Y118.007 E9.23851
G1 X94.572 Y119.292 E9.29542
G1 X94.687 Y120.41 E9.34514
G1 X94.856 Y121.5 E9.39393
G1 X140.144 Y121.5 E11.39729
G1 X140.221 Y121.061 E11.41701
G1 X140.234 Y120.975 E11.42086
G1 X140.36 Y120.025 E11.46325
G1 X140.441 Y119.122 E11.50335
G1 X140.478 Y118.496 E11.53109
G1 X140.493 Y118.052 E11.55074
G1 X140.499 Y117.479 E11.57609
G1 X140.491 Y116.883 E11.60246
G1 X140.457 Y116.106 E11.63686
G1 X140.395 Y115.309 E11.67223
G1 X140.256 Y114.164 E11.72325
G1 X140.106 Y113.3 E11.76204
G1 X94.896 Y113.3 E13.76195
G1 X94.736 Y114.224 E13.80343
G0 F7500 X94.341 Y114.164
G1 F1500 X94.194 Y115.429 E13.85977
G1 X94.112 Y116.79 E13.92008
G1 X94.108 Y118.007 E13.97392
G1 X94.173 Y119.315 E14.03185
G1 X94.294 Y120.494 E14.08428
G1 X94.488 Y121.738 E14.13997
G1 X94.521 Y121.9 E14.14729
G1 X140.48 Y121.9 E16.18033
G1 X140.614 Y121.135 E16.21468
G1 X140.628 Y121.044 E16.21876
G1 X140.76 Y120.044 E16.26337
G1 X140.838 Y119.181 E16.30171
G1 X140.878 Y118.492 E16.33224
G1 X140.892 Y118.07 E16.35091
G1 X140.899 Y117.478 E16.3771
G1 X140.891 Y116.86 E16.40444
G1 X140.858 Y116.11 E16.43765
G1 X140.794 Y115.276 E16.47465
G1 X140.652 Y114.107 E16.52675
G1 X140.449 Y112.933 E16.57945
G1 X140.441 Y112.9 E16.58095
G1 X94.559 Y112.9 E18.61059
G1 X94.341 Y114.164 E18.66733
G0 F7500 X93.945 Y114.104
G1 F1500 X93.795 Y115.395 E18.72482
G1 X93.712 Y116.783 E18.78633
G1 X93.708 Y118.025 E18.84127
G1 X93.773 Y119.338 E18.89942
G1 X93.896 Y120.537 E18.95274
G1 X94.094 Y121.806 E19.00956
G1 X94.196 Y122.3 E19.03187
G1 X140.808 Y122.3 E21.0938
G1 X140.852 Y122.091 E21.10324
G1 X141.01 Y121.192 E21.14362
G1 X141.024 Y121.099 E21.14778
G1 X141.159 Y120.077 E21.19338
G1 X141.237 Y119.208 E21.23198
G1 X141.276 Y118.531 E21.26198
G1 X141.293 Y118.041 E21.28367
G1 X141.299 Y117.477 E21.30862
G1 X141.29 Y116.838 E21.33689
G1 X141.255 Y116.043 E21.37209
G1 X141.189 Y115.209 E21.4091
G1 X141.048 Y114.053 E21.46061
G1 X140.839 Y112.845 E21.51484
G1 X140.763 Y112.5 E21.53047
G1 X94.239 Y112.5 E23.5885
G1 X94.166 Y112.826 E23.60328
G1 X93.945 Y114.104 E23.66065
G0 F7500 X93.549 Y114.044
G1 F1500 X93.398 Y115.342 E23.71846
G1 X93.312 Y116.776 E23.78201
G1 X93.308 Y118.025 E23.83726
G1 X93.375 Y119.378 E23.89718
G1 X93.499 Y120.585 E23.95086
G1 X93.702 Y121.886 E24.00911
G1 X93.871 Y122.7 E24.04588
G1 X141.129 Y122.7 E26.13639
G1 X141.247 Y122.154 E26.1611
G1 X141.413 Y121.211 E26.20345
G1 X141.555 Y120.129 E26.25173
G1 X141.639 Y119.205 E26.29277
G1 X141.676 Y118.566 E26.32108
G1 X141.693 Y118.06 E26.34348
G1 X141.699 Y117.476 E26.36931
G1 X141.691 Y116.849 E26.39705
G1 X141.654 Y116.011 E26.43416
G1 X141.588 Y115.179 E26.47108
G1 X141.446 Y114.01 E26.52317
G1 X141.229 Y112.756 E26.57947
G1 X141.085 Y112.1 E26.60918
G1 X93.919 Y112.1 E28.69561
G1 X93.769 Y112.768 E28.7259
G1 X93.549 Y114.044 E28.78317
G0 F7500 X93.153 Y113.986
G1 F1500 X92.998 Y115.324 E28.84276
G1 X92.913 Y116.742 E28.9056
G1 X92.908 Y118.044 E28.96319
G1 X92.976 Y119.401 E29.0233
G1 X93.101 Y120.628 E29.07785
G1 X93.31 Y121.969 E29.13789
G1 X93.531 Y123.035 E29.18605
G1 X93.547 Y123.1 E29.18901
G1 X141.451 Y123.1 E31.30809
G1 X141.641 Y122.224 E31.34774
G1 X141.813 Y121.238 E31.39202
G1 X141.953 Y120.176 E31.4394
G1 X142.036 Y119.265 E31.47987
G1 X142.076 Y118.562 E31.51102
G1 X142.092 Y118.077 E31.53248
G1 X142.1 Y117.475 E31.55911
G1 X142.09 Y116.826 E31.58783
G1 X142.053 Y115.979 E31.62533
G1 X141.988 Y115.156 E31.66185
G1 X141.849 Y114.002 E31.71327
G1 X141.624 Y112.694 E31.77198
G1 X141.406 Y111.7 E31.81699
G1 X93.598 Y111.7 E33.93183
G1 X93.379 Y112.675 E33.97603
G1 X93.153 Y113.986 E34.03488
G0 F7500 X92.758 Y113.925
G1 F1500 X92.599 Y115.29 E34.09567
G1 X92.513 Y116.743 E34.16006
G1 X92.508 Y118.044 E34.21761
G1 X92.578 Y119.443 E34.27957
G1 X92.706 Y120.693 E34.33516
G1 X92.912 Y122.015 E34.39434
G1 X93.144 Y123.134 E34.4449
G1 X93.241 Y123.523 E34.46263
G1 X93.5 Y123.5 E34.47413
G1 X141.5 Y123.5 E36.59746
G1 X141.762 Y123.517 E36.60907
G1 X141.83 Y123.242 E36.62161
G1 X142.034 Y122.302 E36.66416
G1 X142.207 Y121.308 E36.70879
G1 X142.35 Y120.223 E36.7572
G1 X142.434 Y119.293 E36.79851
G1 X142.477 Y118.558 E36.83107
G1 X142.492 Y118.095 E36.85157
G1 X142.5 Y117.474 E36.87904
G1 X142.49 Y116.803 E36.90872
G1 X142.456 Y116.009 E36.94388
G1 X142.386 Y115.115 E36.98355
G1 X142.245 Y113.947 E37.03559
G1 X142.236 Y113.885 E37.03836
G1 X142.015 Y112.605 E37.09582
G1 X141.799 Y111.626 E37.14017
G1 X141.708 Y111.281 E37.15595
G1 X141.5 Y111.3 E37.16519
G1 X93.5 Y111.3 E39.28852
G1 X93.288 Y111.287 E39.29792
G1 X93.243 Y111.456 E39.30565
G1 X92.987 Y112.598 E39.35742
G1 X92.758 Y113.925 E39.41699
G0 F7500 X92.36 Y113.883
G1 F1500 X92.202 Y115.239 E39.47738
G1 X92.113 Y116.721 E39.54306
G1 X92.107 Y118.062 E39.60238
G1 X92.178 Y119.466 E39.66457
G1 X92.307 Y120.731 E39.72081
G1 X92.52 Y122.098 E39.78202
G1 X92.759 Y123.248 E39.83397
G1 X92.935 Y123.936 E39.86539
G1 X92.95 Y123.933 E39.86606
G1 X93.5 Y123.9 E39.89044
G1 X141.5 Y123.9 E42.01377
G1 X142.065 Y123.937 E42.03881
G1 X142.179 Y123.501 E42.05875
G1 X142.219 Y123.335 E42.0663
G1 X142.42 Y122.409 E42.10822
G1 X142.594 Y121.418 E42.15273
G1 X142.609 Y121.322 E42.15702
G1 X142.742 Y120.318 E42.20182
G1 X142.752 Y120.228 E42.20583
G1 X142.834 Y119.321 E42.24612
G1 X142.876 Y118.594 E42.27833
G1 X142.892 Y118.114 E42.29957
G1 X142.899 Y117.5 E42.32674
G1 X142.889 Y116.781 E42.35855
G1 X142.854 Y115.965 E42.39468
G1 X142.783 Y115.076 E42.43413
G1 X142.772 Y114.971 E42.4388
G1 X142.631 Y113.821 E42.49005
G1 X142.41 Y112.542 E42.54747
G1 X142.183 Y111.511 E42.59416
G1 X142.012 Y110.869 E42.62355
G1 X141.5 Y110.9 E42.64624
G1 X93.5 Y110.9 E44.76957
G1 X92.988 Y110.866 E44.79227
G1 X92.855 Y111.36 E44.8149
G1 X92.594 Y112.525 E44.86771
G1 X92.36 Y113.883 E44.92867
G0 F7500 X91.965 Y113.82
G1 F1500 X91.804 Y115.205 E44.99035
G1 X91.713 Y116.716 E45.05731
G1 X91.707 Y118.062 E45.11685
G1 X91.78 Y119.508 E45.1809
G1 X91.911 Y120.782 E45.23756
G1 X92.129 Y122.184 E45.30032
G1 X92.363 Y123.309 E45.35115
G1 X92.379 Y123.378 E45.35428
G1 X92.639 Y124.393 E45.40063
G1 X92.705 Y124.376 E45.40365
G1 X93.5 Y124.3 E45.43898
G1 X141.5 Y124.3 E47.5623
G1 X142.078 Y124.34 E47.58793
G1 X142.358 Y124.399 E47.60059
G1 X142.567 Y123.598 E47.63721
G1 X142.6 Y123.462 E47.6434
G1 X142.807 Y122.518 E47.68615
G1 X142.986 Y121.501 E47.73183
G1 X143.008 Y121.359 E47.73819
G1 X143.146 Y120.312 E47.7849
G1 X143.233 Y119.348 E47.82772
G1 X143.274 Y118.632 E47.85944
G1 X143.293 Y118.085 E47.88366
G1 X143.299 Y117.5 E47.90953
G1 X143.289 Y116.758 E47.94236
G1 X143.254 Y115.958 E47.97778
G1 X143.182 Y115.038 E48.01861
G1 X143.037 Y113.836 E48.07216
G1 X143.022 Y113.729 E48.07694
G1 X142.805 Y112.475 E48.13324
G1 X142.58 Y111.452 E48.17957
G1 X142.307 Y110.421 E48.22675
G1 X142.295 Y110.424 E48.2273
G1 X141.5 Y110.5 E48.26263
G1 X93.5 Y110.5 E50.38595
G1 X92.922 Y110.46 E50.41158
G1 X92.697 Y110.413 E50.42175
G1 X92.49 Y111.172 E50.45655
G1 X92.451 Y111.33 E50.46375
G1 X92.204 Y112.432 E50.51371
G1 X91.965 Y113.82 E50.57601
G0 F7500 X91.569 Y113.759
G1 F1500 X91.401 Y115.216 E50.64089
G1 X91.313 Y116.709 E50.70705
G1 X91.307 Y118.08 E50.7677
G1 X91.38 Y119.529 E50.83188
G1 X91.513 Y120.827 E50.8896
G1 X91.734 Y122.246 E50.95312
G1 X91.974 Y123.404 E51.00544
G1 X92.245 Y124.467 E51.05397
G1 X92.277 Y124.582 E51.05925
G1 X92.366 Y124.881 E51.07305
G1 X92.506 Y124.832 E51.07961
G1 X93.047 Y124.727 E51.10399
G1 X93.5 Y124.7 E51.12406
G1 X141.5 Y124.7 E53.24739
G1 X142.05 Y124.74 E53.27178
G1 X142.588 Y124.859 E53.29616
G1 X142.635 Y124.877 E53.29838
G1 X142.72 Y124.594 E53.31145
G1 X142.955 Y123.695 E53.35256
G1 X142.997 Y123.521 E53.36048
G1 X143.201 Y122.588 E53.40272
G1 X143.394 Y121.482 E53.45239
G1 X143.543 Y120.354 E53.50272
G1 X143.631 Y119.376 E53.54616
G1 X143.675 Y118.628 E53.5793
G1 X143.692 Y118.103 E53.60254
G1 X143.699 Y117.5 E53.62921
G1 X143.688 Y116.734 E53.6631
G1 X143.655 Y115.955 E53.69759
G1 X143.58 Y114.996 E53.74014
G1 X143.425 Y113.713 E53.79731
G1 X143.195 Y112.386 E53.85689
G1 X142.969 Y111.357 E53.90349
G1 X142.653 Y110.168 E53.95791
G1 X142.581 Y109.937 E53.96862
G1 X142.494 Y109.968 E53.9727
G1 X141.953 Y110.073 E53.99708
G1 X141.5 Y110.1 E54.01716
G1 X93.5 Y110.1 E56.14048
G1 X92.95 Y110.06 E56.16488
G1 X92.416 Y109.942 E56.18907
G1 X92.366 Y110.105 E56.19661
G1 X92.094 Y111.103 E56.24237
G1 X91.811 Y112.359 E56.29932
G1 X91.569 Y113.759 E56.36217
G0 F7500 X91.174 Y113.691
G1 F1500 X91.006 Y115.137 E56.42657
G1 X90.913 Y116.696 E56.49565
G1 X90.907 Y118.069 E56.55639
G1 X90.982 Y119.571 E56.62291
G1 X91.116 Y120.873 E56.68081
G1 X91.342 Y122.326 E56.74586
G1 X91.592 Y123.53 E56.80026
G1 X91.859 Y124.576 E56.84801
G1 X91.889 Y124.683 E56.85293
G1 X92.106 Y125.41 E56.88649
G1 X92.355 Y125.298 E56.89857
G1 X92.858 Y125.161 E56.92163
G1 X93.5 Y125.1 E56.95016
G1 X141.5 Y125.1 E59.07348
G1 X142.02 Y125.14 E59.09655
G1 X142.527 Y125.259 E59.11959
G1 X142.893 Y125.407 E59.13706
G1 X143.099 Y124.722 E59.1687
G1 X143.127 Y124.623 E59.17325
G1 X143.346 Y123.781 E59.21173
G1 X143.386 Y123.615 E59.21929
G1 X143.595 Y122.658 E59.26262
G1 X143.795 Y121.51 E59.31417
G1 X143.929 Y120.497 E59.35937
G1 X143.944 Y120.367 E59.36516
G1 X144.031 Y119.402 E59.40802
G1 X144.074 Y118.664 E59.44072
G1 X144.092 Y118.122 E59.46471
G1 X144.099 Y117.508 E59.49187
G1 X144.088 Y116.725 E59.52651
G1 X144.053 Y115.911 E59.56255
G1 X143.978 Y114.958 E59.60484
G1 X143.822 Y113.665 E59.66245
G1 X143.59 Y112.319 E59.72287
G1 X143.351 Y111.234 E59.77202
G1 X143.044 Y110.079 E59.82489
G1 X142.837 Y109.416 E59.85561
G1 X142.645 Y109.502 E59.86492
G1 X142.142 Y109.639 E59.88798
G1 X141.5 Y109.7 E59.91651
G1 X93.5 Y109.7 E62.03983
G1 X92.98 Y109.66 E62.0629
G1 X92.473 Y109.541 E62.08594
G1 X92.163 Y109.416 E62.10073
G1 X91.988 Y109.973 E62.12655
G1 X91.683 Y111.1 E62.1782
G1 X91.414 Y112.301 E62.23264
G1 X91.174 Y113.691 E62.29504
G0 F7500 X90.777 Y113.641
G1 F1500 X90.608 Y115.1 E62.36001
G1 X90.513 Y116.699 E62.43087
G1 X90.507 Y118.099 E62.4928
G1 X90.582 Y119.594 E62.55902
G1 X90.72 Y120.935 E62.61865
G1 X90.951 Y122.411 E62.68474
G1 X91.205 Y123.629 E62.73978
G1 X91.478 Y124.697 E62.78854
G1 X91.502 Y124.784 E62.79253
G1 X91.801 Y125.783 E62.83866
G1 X91.87 Y125.985 E62.8481
G1 X92.257 Y125.77 E62.86769
G1 X92.717 Y125.604 E62.88932
G1 X93.198 Y125.515 E62.91096
G1 X93.5 Y125.5 E62.92434
G1 X141.5 Y125.5 E65.04766
G1 X141.988 Y125.54 E65.06932
G1 X142.463 Y125.659 E65.09098
G1 X142.912 Y125.853 E65.11262
G1 X143.127 Y125.991 E65.12392
G1 X143.222 Y125.704 E65.13729
G1 X143.498 Y124.784 E65.17978
G1 X143.734 Y123.878 E65.2212
G1 X143.775 Y123.708 E65.22893
G1 X143.989 Y122.728 E65.27331
G1 X144.175 Y121.668 E65.32091
G1 X144.327 Y120.537 E65.37139
G1 X144.341 Y120.414 E65.37687
G1 X144.43 Y119.43 E65.42058
G1 X144.475 Y118.66 E65.4547
G1 X144.492 Y118.139 E65.47776
G1 X144.499 Y117.508 E65.50567
G1 X144.488 Y116.723 E65.5404
G1 X144.453 Y115.903 E65.57671
G1 X144.374 Y114.897 E65.62134
G1 X144.222 Y113.64 E65.67735
G1 X144.211 Y113.565 E65.68071
G1 X143.98 Y112.231 E65.7406
G1 X143.746 Y111.167 E65.78879
G1 X143.709 Y111.022 E65.79541
G1 X143.417 Y109.93 E65.84541
G1 X143.133 Y109.018 E65.88766
G1 X143.073 Y108.847 E65.89568
G1 X142.743 Y109.03 E65.91237
G1 X142.283 Y109.196 E65.93401
G1 X141.802 Y109.285 E65.95564
G1 X141.5 Y109.3 E65.96902
G1 X93.5 Y109.3 E68.09235
G1 X93.012 Y109.26 E68.11401
G1 X92.537 Y109.141 E68.13567
G1 X92.088 Y108.947 E68.15731
G1 X91.928 Y108.844 E68.16572
G1 X91.879 Y108.983 E68.17224
G1 X91.609 Y109.844 E68.21216
G1 X91.317 Y110.915 E68.26126
G1 X91.286 Y111.042 E68.26705
G1 X91.025 Y112.208 E68.3199
G1 X90.777 Y113.641 E68.38424
G0 F7500 X90.382 Y113.581
G1 F1500 X90.205 Y115.115 E68.45254
G1 X90.113 Y116.677 E68.52176
G1 X90.107 Y118.095 E68.58449
G1 X90.184 Y119.636 E68.65274
G1 X90.322 Y120.981 E68.71255
G1 X90.555 Y122.469 E68.77917
G1 X90.803 Y123.666 E68.83325
G1 X91.079 Y124.754 E68.8829
G1 X91.128 Y124.931 E68.89103
G1 X91.423 Y125.912 E68.93634
G1 X91.677 Y126.66 E68.97129
G1 X91.838 Y126.5 E68.98133
G1 X92.213 Y126.241 E69.00149
G1 X92.627 Y126.051 E69.02164
G1 X93.068 Y125.936 E69.0418
G1 X93.5 Y125.9 E69.06097
G1 X141.5 Y125.9 E71.1843
G1 X141.954 Y125.94 E71.20446
G1 X142.394 Y126.058 E71.22461
G1 X142.806 Y126.252 E71.24476
G1 X143.179 Y126.515 E71.26495
G1 X143.321 Y126.658 E71.27386
G1 X143.578 Y125.906 E71.30902
G1 X143.872 Y124.931 E71.35407
G1 X144.122 Y123.975 E71.39778
G1 X144.164 Y123.801 E71.4057
G1 X144.382 Y122.798 E71.4511
G1 X144.569 Y121.737 E71.49876
G1 X144.589 Y121.606 E71.50462
G1 X144.74 Y120.457 E71.55588
G1 X144.827 Y119.49 E71.59883
G1 X144.873 Y118.696 E71.63402
G1 X144.893 Y118.095 E71.66062
G1 X144.9 Y117.507 E71.68663
G1 X144.888 Y116.726 E71.72118
G1 X144.851 Y115.86 E71.75952
G1 X144.774 Y114.882 E71.80292
G1 X144.761 Y114.757 E71.80848
G1 X144.608 Y113.512 E71.86397
G1 X144.371 Y112.146 E71.9253
G1 X144.135 Y111.072 E71.97394
G1 X144.097 Y110.923 E71.98074
G1 X143.823 Y109.896 E72.02776
G1 X143.786 Y109.77 E72.03357
G1 X143.51 Y108.885 E72.07458
G1 X143.269 Y108.194 E72.10695
G1 X143.162 Y108.3 E72.11361
G1 X142.787 Y108.559 E72.13378
G1 X142.373 Y108.749 E72.15393
G1 X141.932 Y108.864 E72.17409
G1 X141.5 Y108.9 E72.19326
G1 X93.5 Y108.9 E74.31659
G1 X93.046 Y108.86 E74.33675
G1 X92.606 Y108.742 E74.3569
G1 X92.194 Y108.548 E74.37705
G1 X91.821 Y108.285 E74.39724
G1 X91.73 Y108.194 E74.40293
G1 X91.507 Y108.838 E74.43308
G1 X91.223 Y109.739 E74.47487
G1 X90.91 Y110.892 E74.52772
G1 X90.631 Y112.135 E74.58407
G1 X90.382 Y113.581 E74.64898
G0 F7500 X89.983 Y113.539
G1 F1500 X89.811 Y115.019 E74.71489
G1 X89.713 Y116.653 E74.7873
G1 X89.707 Y118.109 E74.8517
G1 X89.783 Y119.64 E74.91951
G1 X89.928 Y121.046 E74.98204
G1 X90.16 Y122.535 E75.0487
G1 X90.414 Y123.761 E75.10409
G1 X90.436 Y123.856 E75.1084
G1 X90.693 Y124.861 E75.15429
