;FLAVOR:Marlin
M117 Time Left 1h51m56s
;TIME:6716
;Filament used: 7.7961m
;Layer height: 0.28
;MINX:24.7
;MINY:78.2
;MINZ:0.28
;MAXX:210.3
;MAXY:156.8
;MAXZ:12.04
;POSTPROCESSED
;Generated with Cura_SteamEngine 4.10.0
M140 S75
M105
M190 S75
M104 S235
M105
M109 S235
M82 ;absolute extrusion mode
; Ender 3 Custom Start G-code
G92 E0 ; Reset Extruder
G28 ; Home all axes
G1 Z2.0 F3000 ; Move Z Axis up little to prevent scratching of Heat Bed
G1 X0.1 Y20 Z0.3 F5000.0 ; Move to start position
G1 X0.1 Y200.0 Z0.3 F1500.0 E15 ; Draw the first line
G1 X0.4 Y200.0 Z0.3 F5000.0 ; Move to side a little
G1 X0.4 Y20 Z0.3 F1500.0 E30 ; Draw the second line
G92 E0 ; Reset Extruder
G1 Z2.0 F3000 ; Move Z Axis up little to prevent scratching of Heat Bed
G1 X5 Y20 Z0.3 F5000.0 ; Move over to prevent blob squish
G92 E0
G92 E0
G1 F2700 E-6
;LAYER_COUNT:43
;LAYER:0
M107
M204 S500
M205 X8 Y8
G0 F7500 X95.544 Y114.3 Z0.28
;TYPE:SKIRT
G1 F2700 E0
G1 F1500 X95.423 Y115.199 E0.04013
G1 X95.322 Y116.553 E0.10019
G1 X95.304 Y117.767 E0.1539
G1 X95.339 Y118.794 E0.19935
G1 X95.45 Y120.059 E0.25553
G1 X95.54 Y120.7 E0.28416
G1 X139.466 Y120.7 E2.22727
G1 X139.594 Y119.658 E2.27371
G1 X139.661 Y118.794 E2.31205
G1 X139.691 Y118.059 E2.34459
G1 X139.699 Y117.499 E2.36936
G1 X139.692 Y116.953 E2.39352
G1 X139.665 Y116.253 E2.4245
G1 X139.601 Y115.406 E2.46208
G1 X139.485 Y114.421 E2.50595
G1 X139.465 Y114.3 E2.51138
G1 X95.544 Y114.3 E4.45427
G0 F7500 X95.193 Y113.9
G1 F1500 X95.028 Y115.134 E4.50934
G1 X94.922 Y116.551 E4.5722
G1 X94.904 Y117.754 E4.62542
G1 X94.941 Y118.824 E4.67278
G1 X95.054 Y120.112 E4.72997
G1 X95.193 Y121.1 E4.77411
G1 X139.802 Y121.1 E6.74743
G1 X139.862 Y120.757 E6.76284
G1 X139.992 Y119.693 E6.81025
G1 X140.059 Y118.842 E6.84801
G1 X140.092 Y118.044 E6.88334
G1 X140.099 Y117.5 E6.90741
G1 X140.091 Y116.893 E6.93426
G1 X140.064 Y116.226 E6.96379
G1 X139.993 Y115.31 E7.00444
G1 X139.879 Y114.357 E7.04689
G1 X139.803 Y113.9 E7.06739
G1 X95.193 Y113.9 E9.04075
G0 F7500 X94.809 Y113.761
G1 F1500 X94.629 Y115.103 E9.10065
G1 X94.523 Y116.531 E9.16399
G1 X94.504 Y117.762 E9.21845
G1 X94.541 Y118.855 E9.26683
G1 X94.655 Y120.146 E9.32416
G1 X94.813 Y121.27 E9.37437
G1 X94.857 Y121.5 E9.38473
G1 X140.139 Y121.5 E11.38782
G1 X140.258 Y120.812 E11.41871
G1 X140.388 Y119.752 E11.46595
G1 X140.46 Y118.835 E11.50664
G1 X140.491 Y118.067 E11.54064
G1 X140.5 Y117.499 E11.56577
G1 X140.489 Y116.83 E11.59537
G1 X140.462 Y116.184 E11.62397
G1 X140.391 Y115.273 E11.66439
G1 X140.278 Y114.32 E11.70684
G1 X140.143 Y113.5 E11.74361
G1 X94.859 Y113.5 E13.74679
G1 X94.809 Y113.761 E13.75854
G0 F7500 X94.413 Y113.706
G1 F1500 X94.23 Y115.068 E13.81933
G1 X94.123 Y116.513 E13.88343
G1 X94.104 Y117.769 E13.939
G1 X94.141 Y118.866 E13.98755
G1 X94.258 Y120.197 E14.04666
G1 X94.419 Y121.345 E14.09794
G1 X94.527 Y121.9 E14.12295
G1 X140.475 Y121.9 E16.1555
G1 X140.653 Y120.872 E16.20165
G1 X140.787 Y119.783 E16.25019
G1 X140.859 Y118.858 E16.29123
G1 X140.891 Y118.088 E16.32532
G1 X140.9 Y117.499 E16.35138
G1 X140.891 Y116.872 E16.37912
G1 X140.862 Y116.166 E16.41038
G1 X140.792 Y115.258 E16.45066
G1 X140.673 Y114.258 E16.49521
G1 X140.481 Y113.1 E16.54714
G1 X94.529 Y113.1 E18.57987
G1 X94.413 Y113.706 E18.60716
G0 F7500 X94.016 Y113.649
G1 F1500 X93.833 Y115.02 E18.66835
G1 X93.723 Y116.494 E18.73373
G1 X93.703 Y117.777 E18.79049
G1 X93.742 Y118.896 E18.84002
G1 X93.859 Y120.231 E18.8993
G1 X94.024 Y121.402 E18.95162
G1 X94.198 Y122.3 E18.99208
G1 X140.807 Y122.3 E21.05387
G1 X140.824 Y122.229 E21.0571
G1 X141.05 Y120.927 E21.11556
G1 X141.186 Y119.809 E21.16538
G1 X141.257 Y118.904 E21.20554
G1 X141.292 Y118.074 E21.24229
G1 X141.3 Y117.499 E21.26772
G1 X141.29 Y116.844 E21.2967
G1 X141.259 Y116.113 E21.32907
G1 X141.193 Y115.251 E21.36731
G1 X141.07 Y114.212 E21.41359
G1 X141.057 Y114.124 E21.41753
G1 X140.874 Y113.024 E21.46686
G1 X140.805 Y112.7 E21.48151
G1 X94.199 Y112.7 E23.54317
G1 X94.016 Y113.649 E23.58592
G0 F7500 X93.624 Y113.572
G1 F1500 X93.434 Y114.988 E23.64912
G1 X93.323 Y116.475 E23.71509
G1 X93.303 Y117.765 E23.77216
G1 X93.343 Y118.925 E23.8235
G1 X93.463 Y120.284 E23.88385
G1 X93.63 Y121.475 E23.93705
G1 X93.868 Y122.7 E23.99226
G1 X141.125 Y122.7 E26.08271
G1 X141.214 Y122.32 E26.09998
G1 X141.446 Y120.982 E26.16005
G1 X141.582 Y119.874 E26.20943
G1 X141.657 Y118.925 E26.25154
G1 X141.691 Y118.096 E26.28824
G1 X141.7 Y117.499 E26.31466
G1 X141.691 Y116.896 E26.34133
G1 X141.687 Y116.756 E26.34753
G1 X141.662 Y116.148 E26.37445
G1 X141.593 Y115.234 E26.41499
G1 X141.582 Y115.118 E26.42015
G1 X141.47 Y114.178 E26.46202
G1 X141.452 Y114.056 E26.46748
G1 X141.262 Y112.921 E26.51839
G1 X141.126 Y112.3 E26.54651
G1 X93.868 Y112.3 E28.63701
G1 X93.624 Y113.572 E28.69431
G0 F7500 X93.227 Y113.515
G1 F1500 X93.036 Y114.94 E28.75791
G1 X92.923 Y116.456 E28.82515
G1 X92.903 Y117.772 E28.88338
G1 X92.944 Y118.956 E28.93578
G1 X93.065 Y120.334 E28.99697
G1 X93.233 Y121.531 E29.05044
G1 X93.49 Y122.853 E29.11002
G1 X93.551 Y123.1 E29.12127
G1 X141.442 Y123.1 E31.23978
G1 X141.608 Y122.391 E31.27199
G1 X141.842 Y121.04 E31.33264
G1 X141.98 Y119.912 E31.38291
G1 X142.058 Y118.917 E31.42706
G1 X142.091 Y118.119 E31.46239
G1 X142.1 Y117.499 E31.48982
G1 X142.091 Y116.884 E31.51703
G1 X142.064 Y116.178 E31.54828
G1 X142.055 Y116.026 E31.55502
G1 X141.993 Y115.209 E31.59126
G1 X141.98 Y115.081 E31.59695
G1 X141.864 Y114.104 E31.64048
G1 X141.651 Y112.826 E31.69779
G1 X141.448 Y111.9 E31.73973
G1 X93.552 Y111.9 E33.85845
G1 X93.483 Y112.185 E33.87142
G1 X93.227 Y113.515 E33.93134
G0 F7500 X92.834 Y113.438
G1 F1500 X92.638 Y114.908 E33.99694
G1 X92.523 Y116.438 E34.06481
G1 X92.503 Y117.78 E34.12418
G1 X92.544 Y118.967 E34.17672
G1 X92.667 Y120.375 E34.23924
G1 X92.837 Y121.585 E34.2933
G1 X93.1 Y122.942 E34.35444
G1 X93.245 Y123.523 E34.38093
G1 X93.5 Y123.5 E34.39226
G1 X141.5 Y123.5 E36.51558
G1 X141.756 Y123.516 E36.52693
G1 X141.997 Y122.486 E36.57372
G1 X142.238 Y121.097 E36.63608
G1 X142.379 Y119.945 E36.68742
G1 X142.456 Y118.965 E36.73091
G1 X142.491 Y118.103 E36.76907
G1 X142.5 Y117.499 E36.79579
G1 X142.489 Y116.795 E36.82694
G1 X142.46 Y116.087 E36.85829
G1 X142.385 Y115.109 E36.90168
G1 X142.259 Y114.04 E36.94929
G1 X142.055 Y112.81 E37.00444
G1 X142.042 Y112.742 E37.00751
G1 X141.785 Y111.568 E37.06067
G1 X141.762 Y111.476 E37.06486
G1 X141.5 Y111.5 E37.0765
G1 X93.5 Y111.5 E39.19983
G1 X93.242 Y111.484 E39.21126
G1 X93.093 Y112.094 E39.23904
G1 X92.834 Y113.438 E39.29959
G0 F7500 X92.438 Y113.381
G1 F1500 X92.24 Y114.859 E39.36555
G1 X92.124 Y116.418 E39.43471
G1 X92.103 Y117.787 E39.49527
G1 X92.144 Y118.997 E39.54883
G1 X92.27 Y120.427 E39.61233
G1 X92.443 Y121.657 E39.66728
G1 X92.708 Y123.025 E39.72892
G1 X92.936 Y123.936 E39.77046
G1 X92.95 Y123.933 E39.77109
G1 X93.5 Y123.9 E39.79547
G1 X141.5 Y123.9 E41.91879
G1 X142.068 Y123.938 E41.94398
G1 X142.394 Y122.544 E42.00731
G1 X142.632 Y121.169 E42.06903
G1 X142.778 Y119.979 E42.12207
G1 X142.856 Y118.987 E42.16609
G1 X142.89 Y118.163 E42.20257
G1 X142.899 Y117.499 E42.23194
G1 X142.887 Y116.721 E42.26636
G1 X142.859 Y116.057 E42.29576
G1 X142.787 Y115.114 E42.3376
G1 X142.775 Y114.993 E42.34298
G1 X142.657 Y114.001 E42.38717
G1 X142.446 Y112.725 E42.44438
G1 X142.43 Y112.643 E42.44808
G1 X142.167 Y111.444 E42.50238
G1 X142.065 Y111.064 E42.51978
G1 X142.05 Y111.067 E42.52046
G1 X141.5 Y111.1 E42.54483
G1 X93.5 Y111.1 E44.66816
G1 X92.935 Y111.063 E44.69321
G1 X92.718 Y111.94 E44.73317
G1 X92.698 Y112.03 E44.73725
G1 X92.438 Y113.381 E44.79811
G0 F7500 X92.043 Y113.321
G1 F1500 X91.841 Y114.828 E44.86537
G1 X91.725 Y116.382 E44.9343
G1 X91.704 Y117.795 E44.99681
G1 X91.746 Y119.027 E45.05134
G1 X91.873 Y120.474 E45.1156
G1 X92.05 Y121.732 E45.1718
G1 X92.317 Y123.108 E45.2338
G1 X92.639 Y124.394 E45.29244
G1 X92.705 Y124.376 E45.29547
G1 X93.5 Y124.3 E45.3308
G1 X141.5 Y124.3 E47.45413
G1 X142.078 Y124.34 E47.47976
G1 X142.353 Y124.398 E47.49219
G1 X142.453 Y124.047 E47.50833
G1 X142.784 Y122.632 E47.57262
G1 X143.028 Y121.23 E47.63557
G1 X143.179 Y119.987 E47.69096
G1 X143.255 Y119.008 E47.73439
G1 X143.289 Y118.185 E47.77083
G1 X143.299 Y117.499 E47.80118
G1 X143.287 Y116.71 E47.83609
G1 X143.262 Y116.107 E47.86278
G1 X143.253 Y115.955 E47.86952
G1 X143.186 Y115.088 E47.90799
G1 X143.175 Y114.971 E47.91319
G1 X143.051 Y113.932 E47.95947
G1 X143.04 Y113.856 E47.96287
G1 X142.838 Y112.643 E48.01727
G1 X142.553 Y111.339 E48.07631
G1 X142.356 Y110.608 E48.1098
G1 X142.295 Y110.624 E48.11259
G1 X141.5 Y110.7 E48.14792
G1 X93.5 Y110.7 E50.27125
G1 X92.922 Y110.66 E50.29688
G1 X92.643 Y110.602 E50.30948
G1 X92.601 Y110.748 E50.3162
G1 X92.315 Y111.907 E50.36901
G1 X92.043 Y113.321 E50.43271
G0 F7500 X91.646 Y113.264
G1 F1500 X91.444 Y114.778 E50.50027
G1 X91.325 Y116.364 E50.57063
G1 X91.303 Y117.802 E50.63425
G1 X91.346 Y119.057 E50.6898
G1 X91.473 Y120.498 E50.75379
G1 X91.656 Y121.805 E50.81217
G1 X91.925 Y123.191 E50.87462
G1 X92.25 Y124.491 E50.9339
G1 X92.366 Y124.881 E50.9519
G1 X92.506 Y124.832 E50.95846
G1 X93.047 Y124.727 E50.98284
G1 X93.5 Y124.7 E51.00291
G1 X141.5 Y124.7 E53.12624
G1 X142.05 Y124.74 E53.15063
G1 X142.588 Y124.859 E53.17501
G1 X142.631 Y124.875 E53.17704
G1 X142.84 Y124.147 E53.21054
G1 X143.177 Y122.706 E53.27601
G1 X143.423 Y121.287 E53.33971
G1 X143.573 Y120.068 E53.39404
G1 X143.653 Y119.054 E53.43904
G1 X143.69 Y118.17 E53.47818
G1 X143.699 Y117.499 E53.50786
G1 X143.688 Y116.746 E53.54118
G1 X143.657 Y115.996 E53.57438
G1 X143.586 Y115.062 E53.61582
G1 X143.569 Y114.893 E53.62333
G1 X143.451 Y113.898 E53.66765
G1 X143.23 Y112.563 E53.72751
G1 X142.941 Y111.24 E53.78742
G1 X142.637 Y110.118 E53.83884
G1 X142.494 Y110.168 E53.84554
G1 X141.953 Y110.273 E53.86992
G1 X141.5 Y110.3 E53.88999
G1 X93.5 Y110.3 E56.01332
G1 X92.95 Y110.26 E56.03771
G1 X92.412 Y110.141 E56.06209
G1 X92.367 Y110.124 E56.06422
G1 X92.213 Y110.651 E56.0885
G1 X91.933 Y111.78 E56.13996
G1 X91.646 Y113.264 E56.20682
G0 F7500 X91.254 Y113.186
G1 F1500 X91.047 Y114.73 E56.27573
G1 X90.925 Y116.362 E56.34813
G1 X90.903 Y117.81 E56.41219
G1 X90.947 Y119.074 E56.46814
G1 X91.077 Y120.559 E56.53408
G1 X91.261 Y121.862 E56.59229
G1 X91.539 Y123.298 E56.65699
G1 X91.865 Y124.6 E56.71636
G1 X92.107 Y125.409 E56.75372
G1 X92.355 Y125.298 E56.76574
G1 X92.858 Y125.161 E56.7888
G1 X93.5 Y125.1 E56.81733
G1 X141.5 Y125.1 E58.94065
G1 X142.02 Y125.14 E58.96372
G1 X142.527 Y125.259 E58.98676
G1 X142.895 Y125.408 E59.00432
G1 X143.223 Y124.266 E59.05688
G1 X143.57 Y122.78 E59.12439
G1 X143.82 Y121.342 E59.18895
G1 X143.973 Y120.084 E59.24501
G1 X144.055 Y119.029 E59.29182
G1 X144.089 Y118.192 E59.32888
G1 X144.099 Y117.499 E59.35954
G1 X144.089 Y116.779 E59.39139
G1 X144.061 Y116.06 E59.42322
G1 X144.052 Y115.908 E59.42995
G1 X143.975 Y114.92 E59.47379
G1 X143.849 Y113.863 E59.52088
G1 X143.826 Y113.705 E59.52794
G1 X143.629 Y112.525 E59.58086
G1 X143.61 Y112.422 E59.5855
G1 X143.348 Y111.226 E59.63966
G1 X143.303 Y111.04 E59.64812
G1 X143.002 Y109.935 E59.69878
G1 X142.893 Y109.591 E59.71475
G1 X142.645 Y109.702 E59.72677
G1 X142.142 Y109.839 E59.74983
G1 X141.5 Y109.9 E59.77836
G1 X93.5 Y109.9 E61.90168
G1 X92.98 Y109.86 E61.92475
G1 X92.473 Y109.741 E61.94779
G1 X92.106 Y109.593 E61.9653
G1 X91.859 Y110.43 E62.0039
G1 X91.807 Y110.623 E62.01274
G1 X91.555 Y111.641 E62.05913
G1 X91.523 Y111.784 E62.06561
G1 X91.254 Y113.186 E62.12876
G0 F7500 X90.857 Y113.132
G1 F1500 X90.649 Y114.68 E62.19786
G1 X90.525 Y116.342 E62.27158
G1 X90.503 Y117.817 E62.33684
G1 X90.547 Y119.098 E62.39354
G1 X90.678 Y120.59 E62.45979
G1 X90.867 Y121.937 E62.51996
G1 X91.142 Y123.356 E62.5839
G1 X91.475 Y124.688 E62.64464
G1 X91.519 Y124.842 E62.65172
G1 X91.816 Y125.827 E62.69723
G1 X91.87 Y125.985 E62.70462
G1 X92.257 Y125.77 E62.7242
G1 X92.717 Y125.604 E62.74583
G1 X93.198 Y125.515 E62.76747
G1 X93.5 Y125.5 E62.78085
G1 X141.5 Y125.5 E64.90417
G1 X141.988 Y125.54 E64.92583
G1 X142.463 Y125.659 E64.9475
G1 X142.912 Y125.853 E64.96913
G1 X143.125 Y125.99 E64.98034
G1 X143.231 Y125.679 E64.99487
G1 X143.258 Y125.592 E64.9989
G1 X143.614 Y124.352 E65.05597
G1 X143.961 Y122.868 E65.12338
G1 X144.216 Y121.4 E65.1893
G1 X144.372 Y120.112 E65.24669
G1 X144.454 Y119.067 E65.29306
G1 X144.489 Y118.215 E65.33078
G1 X144.499 Y117.499 E65.36245
G1 X144.489 Y116.773 E65.39457
G1 X144.46 Y116.036 E65.4272
G1 X144.451 Y115.884 E65.43393
G1 X144.381 Y114.967 E65.47462
G1 X144.372 Y114.873 E65.47879
G1 X144.244 Y113.795 E65.52682
G1 X144.222 Y113.647 E65.53343
G1 X144.026 Y112.471 E65.58617
G1 X144 Y112.333 E65.59239
G1 X143.737 Y111.131 E65.64682
G1 X143.698 Y110.969 E65.65419
G1 X143.413 Y109.921 E65.70223
G1 X143.369 Y109.767 E65.70931
G1 X143.131 Y109.014 E65.74425
G1 X142.743 Y109.23 E65.76389
G1 X142.283 Y109.396 E65.78552
G1 X141.802 Y109.485 E65.80716
G1 X141.5 Y109.5 E65.82054
G1 X93.5 Y109.5 E67.94387
G1 X93.012 Y109.46 E67.96553
G1 X92.537 Y109.341 E67.98719
G1 X92.088 Y109.147 E68.00882
G1 X91.874 Y109.009 E68.02009
G1 X91.773 Y109.309 E68.03409
G1 X91.462 Y110.366 E68.08283
G1 X91.421 Y110.518 E68.08979
G1 X91.156 Y111.588 E68.13856
G1 X91.134 Y111.687 E68.14304
G1 X90.857 Y113.132 E68.20813
G0 F7500 X90.464 Y113.054
G1 F1500 X90.251 Y114.648 E68.27927
G1 X90.126 Y116.334 E68.35405
G1 X90.103 Y117.825 E68.42002
G1 X90.147 Y119.117 E68.4772
G1 X90.282 Y120.643 E68.54497
G1 X90.474 Y122.01 E68.60604
G1 X90.756 Y123.464 E68.67155
G1 X91.09 Y124.797 E68.73234
G1 X91.134 Y124.951 E68.73943
G1 X91.429 Y125.929 E68.78462
G1 X91.678 Y126.659 E68.81873
G1 X91.838 Y126.5 E68.82871
G1 X92.213 Y126.241 E68.84887
G1 X92.627 Y126.051 E68.86902
G1 X93.068 Y125.936 E68.88918
G1 X93.5 Y125.9 E68.90836
G1 X141.5 Y125.9 E71.03169
G1 X141.954 Y125.94 E71.05185
G1 X142.394 Y126.058 E71.072
G1 X142.806 Y126.252 E71.09214
G1 X143.179 Y126.515 E71.11233
G1 X143.321 Y126.658 E71.12125
G1 X143.642 Y125.707 E71.16565
G1 X143.998 Y124.466 E71.22276
G1 X144.353 Y122.947 E71.29176
G1 X144.615 Y121.431 E71.35982
G1 X144.765 Y120.207 E71.41437
G1 X144.852 Y119.114 E71.46287
G1 X144.889 Y118.201 E71.50329
G1 X144.899 Y117.499 E71.53435
G1 X144.886 Y116.664 E71.57129
G1 X144.857 Y115.966 E71.6022
G1 X144.851 Y115.861 E71.60685
G1 X144.78 Y114.942 E71.64762
G1 X144.769 Y114.826 E71.65278
G1 X144.638 Y113.721 E71.702
G1 X144.414 Y112.366 E71.76275
G1 X144.401 Y112.297 E71.76586
G1 X144.113 Y110.983 E71.82536
G1 X144.089 Y110.885 E71.82983
G1 X143.765 Y109.694 E71.88443
G1 X143.489 Y108.823 E71.92484
G1 X143.321 Y108.342 E71.94738
G1 X143.162 Y108.5 E71.9573
G1 X142.787 Y108.759 E71.97746
G1 X142.373 Y108.949 E71.99761
G1 X141.932 Y109.064 E72.01777
G1 X141.5 Y109.1 E72.03695
G1 X93.5 Y109.1 E74.16027
G1 X93.046 Y109.06 E74.18043
G1 X92.606 Y108.942 E74.20059
G1 X92.194 Y108.748 E74.22073
G1 X91.821 Y108.485 E74.24092
G1 X91.679 Y108.342 E74.24983
G1 X91.388 Y109.2 E74.28991
G1 X91.07 Y110.28 E74.33971
G1 X90.769 Y111.492 E74.39496
G1 X90.735 Y111.642 E74.40176
G1 X90.464 Y113.054 E74.46536
G0 F7500 X90.069 Y112.997
G1 F1500 X89.852 Y114.616 E74.53762
G1 X89.726 Y116.305 E74.61254
G1 X89.703 Y117.813 E74.67926
G1 X89.748 Y119.139 E74.73795
G1 X89.887 Y120.712 E74.8078
G1 X90.077 Y122.063 E74.86815
G1 X90.366 Y123.552 E74.93525
G1 X90.707 Y124.914 E74.99736
G1 X90.739 Y125.027 E75.00256
G1 X91.047 Y126.047 E75.04969
G1 X91.377 Y127.011 E75.09476
G1 X91.559 Y127.487 E75.1173
G1 X91.651 Y127.309 E75.12617
G1 X91.91 Y126.98 E75.14469
G1 X92.227 Y126.706 E75.16322
G1 X92.59 Y126.497 E75.18175
G1 X92.987 Y126.361 E75.20032
G1 X93.5 Y126.3 E75.22317
G1 X141.5 Y126.3 E77.3465
G1 X141.917 Y126.34 E77.36503
G1 X142.319 Y126.458 E77.38356
G1 X142.691 Y126.651 E77.4021
G1 X143.02 Y126.91 E77.42062
G1 X143.294 Y127.227 E77.43916
G1 X143.443 Y127.485 E77.45234
G1 X143.663 Y126.895 E77.48019
G1 X143.994 Y125.922 E77.52566
G1 X144.39 Y124.546 E77.58899
G1 X144.743 Y123.037 E77.65755
G1 X145.009 Y121.499 E77.72659
G1 X145.161 Y120.259 E77.78186
G1 X145.171 Y120.161 E77.78621
G1 X145.252 Y119.125 E77.83218
G1 X145.289 Y118.222 E77.87216
