;FLAVOR:Marlin
M117 Time Left 1h53m16s
;TIME:6796
;Filament used: 7.82856m
;Layer height: 0.28
;MINX:24.7
;MINY:78.2
;MINZ:0.28
;MAXX:210.3
;MAXY:156.8
;MAXZ:12.04
;POSTPROCESSED
;Generated with Cura_SteamEngine 4.10.0
M140 S75
M105
M190 S75
M104 S235
M105
M109 S235
M82 ;absolute extrusion mode
; Ender 3 Custom Start G-code
G92 E0 ; Reset Extruder
G28 ; Home all axes
; ***SET NEW E STEP *** (93 is factory value - 95 mine - start)
G90                          ; Force coordinates to be absolute relative to the origin
M92 E95 ;					 ; ***SET NEW E STEP *** (93 is factory value - 95 mine - end)
G90                          ; Force coordinates to be absolute relative to the origin
G28                          ; Home X/Y/Z axis
G92 E0 ; Reset Extruder
G28 ; Home all axes
G1 Z2.0 F3000 ; Move Z Axis up little to prevent scratching of Heat Bed
G1 X0.1 Y20 Z0.3 F5000.0 ; Move to start position
G1 X0.1 Y200.0 Z0.3 F1500.0 E15 ; Draw the first line
G1 X0.4 Y200.0 Z0.3 F5000.0 ; Move to side a little
G1 X0.4 Y20 Z0.3 F1500.0 E30 ; Draw the second line
G92 E0 ; Reset Extruder
G1 Z2.0 F3000 ; Move Z Axis up little to prevent scratching of Heat Bed
G1 X5 Y20 Z0.3 F5000.0 ; Move over to prevent blob squish
G92 E0
G92 E0
G1 F2700 E-6
;LAYER_COUNT:43
;LAYER:0
M107
M204 S500
M205 X8 Y8
G0 F7500 X105.358 Y99 Z0.28
;TYPE:SKIRT
G1 F2700 E0
G1 F1500 X129.701 Y99 E1.07684
G1 X129.419 Y98.791 E1.09236
G1 X126.488 Y97.221 E1.23945
G1 X123.363 Y96.107 E1.38621
G1 X120.064 Y95.467 E1.53486
G1 X116.595 Y95.335 E1.68843
G1 X113.221 Y95.736 E1.83873
G1 X109.644 Y96.756 E2.00327
G1 X106.44 Y98.27 E2.16003
G1 X105.358 Y99 E2.21777
G0 F7500 X104.05 Y99.4
G1 F1500 X130.915 Y99.4 E3.40617
G1 X129.633 Y98.452 E3.4767
G1 X126.652 Y96.855 E3.6263
G1 X123.468 Y95.72 E3.77583
G1 X120.116 Y95.069 E3.92687
G1 X116.57 Y94.935 E4.08385
G1 X113.146 Y95.341 E4.23637
G1 X109.507 Y96.379 E4.40377
G1 X106.241 Y97.922 E4.56355
G1 X104.05 Y99.4 E4.68047
G0 F7500 X106.041 Y97.574
G1 F1500 X103.281 Y99.435 E4.82772
G1 X102.87 Y99.8 E4.85203
G1 X132.129 Y99.8 E6.14634
G1 X129.848 Y98.113 E6.27184
G1 X126.822 Y96.492 E6.42369
G1 X123.572 Y95.333 E6.57633
G1 X120.156 Y94.67 E6.73026
G1 X116.557 Y94.534 E6.88957
G1 X113.069 Y94.948 E7.04495
G1 X109.36 Y96.005 E7.21556
G1 X106.041 Y97.574 E7.37795
G0 F7500 X105.85 Y97.221
G1 F1500 X103.029 Y99.124 E7.52848
G1 X101.817 Y100.2 E7.60018
G1 X133.182 Y100.2 E8.98764
G1 X132.694 Y99.721 E9.01789
G1 X130.063 Y97.774 E9.16267
G1 X126.979 Y96.123 E9.31742
G1 X123.679 Y94.946 E9.4724
G1 X120.201 Y94.271 E9.62913
G1 X116.544 Y94.133 E9.79101
G1 X112.987 Y94.555 E9.94946
G1 X109.219 Y95.629 E10.12278
G1 X105.85 Y97.221 E10.28762
G0 F7500 X105.646 Y96.876
G1 F1500 X102.785 Y98.806 E10.44028
G1 X100.763 Y100.6 E10.55986
G1 X134.161 Y100.6 E12.03725
G1 X132.949 Y99.411 E12.11235
G1 X130.28 Y97.437 E12.2592
G1 X127.141 Y95.755 E12.41674
G1 X123.784 Y94.559 E12.57438
G1 X120.254 Y93.873 E12.73346
G1 X116.525 Y93.732 E12.89853
G1 X112.906 Y94.162 E13.05975
G1 X109.082 Y95.252 E13.23564
G1 X105.646 Y96.876 E13.40376
G0 F7500 X105.446 Y96.527
G1 F1500 X102.545 Y98.485 E13.55858
G1 X100.385 Y100.401 E13.68631
G1 X99.861 Y101 E13.72151
G1 X135.141 Y101 E15.28216
G1 X133.213 Y99.109 E15.40162
G1 X130.495 Y97.099 E15.55116
G1 X127.3 Y95.387 E15.7115
G1 X123.894 Y94.173 E15.87145
G1 X120.295 Y93.474 E16.03363
G1 X116.512 Y93.331 E16.2011
G1 X112.829 Y93.769 E16.36517
G1 X108.936 Y94.878 E16.54423
G1 X105.446 Y96.527 E16.71498
G0 F7500 X105.255 Y96.175
G1 F1500 X102.293 Y98.173 E16.87303
G1 X100.1 Y100.119 E17.00273
G1 X98.979 Y101.4 E17.07803
G1 X136.072 Y101.4 E18.71887
G1 X135.906 Y101.191 E18.73068
G1 X133.471 Y98.803 E18.88155
G1 X130.706 Y96.758 E19.03368
G1 X127.462 Y95.02 E19.19648
G1 X124.001 Y93.786 E19.35902
G1 X120.341 Y93.076 E19.52394
G1 X116.492 Y92.93 E19.69433
G1 X112.752 Y93.374 E19.86093
G1 X108.795 Y94.502 E20.04294
G1 X105.255 Y96.175 E20.21615
G0 F7500 X105.051 Y95.83
G1 F1500 X102.053 Y97.852 E20.37611
G1 X99.815 Y99.838 E20.50847
G1 X98.097 Y101.8 E20.62383
G1 X136.9 Y101.8 E22.34032
G1 X136.202 Y100.921 E22.38997
G1 X133.735 Y98.501 E22.54284
G1 X130.916 Y96.416 E22.69795
G1 X127.632 Y94.657 E22.86274
G1 X124.1 Y93.398 E23.02862
G1 X120.387 Y92.677 E23.19593
G1 X116.479 Y92.529 E23.36893
G1 X112.672 Y92.981 E23.53852
G1 X108.657 Y94.125 E23.72319
G1 X105.051 Y95.83 E23.89964
G0 F7500 X104.856 Y95.479
G1 F1500 X101.804 Y97.537 E24.06248
G1 X99.529 Y99.556 E24.19703
G1 X97.352 Y102.043 E24.34324
G1 X97.246 Y102.2 E24.35162
G1 X137.728 Y102.2 E26.14238
G1 X136.499 Y100.651 E26.22985
G1 X133.994 Y98.195 E26.38503
G1 X131.135 Y96.08 E26.54235
G1 X127.791 Y94.289 E26.71016
G1 X124.211 Y93.012 E26.87829
G1 X120.433 Y92.279 E27.04853
G1 X116.46 Y92.129 E27.22441
G1 X112.595 Y92.588 E27.39658
G1 X108.511 Y93.752 E27.58444
G1 X104.856 Y95.479 E27.76326
G0 F7500 X104.658 Y95.13
G1 F1500 X101.556 Y97.223 E27.92879
G1 X99.248 Y99.271 E28.06529
G1 X97.033 Y101.8 E28.214
G1 X96.495 Y102.6 E28.25665
G1 X138.558 Y102.6 E30.11735
G1 X136.799 Y100.386 E30.24243
G1 X134.25 Y97.886 E30.40037
G1 X131.354 Y95.744 E30.55971
G1 X127.953 Y93.921 E30.73041
G1 X124.316 Y92.625 E30.90121
G1 X120.48 Y91.88 E31.07407
G1 X116.447 Y91.728 E31.2526
G1 X112.512 Y92.195 E31.42789
G1 X108.372 Y93.375 E31.61832
G1 X104.658 Y95.13 E31.80003
G0 F7500 X104.449 Y94.788
G1 F1500 X101.307 Y96.908 E31.9677
G1 X98.961 Y98.99 E32.10645
G1 X96.715 Y101.556 E32.2573
G1 X95.743 Y103 E32.3343
G1 X139.288 Y103 E34.26055
G1 X138.888 Y102.374 E34.29342
G1 X137.096 Y100.117 E34.4209
G1 X134.514 Y97.585 E34.58087
G1 X131.565 Y95.403 E34.74315
G1 X128.121 Y93.558 E34.91598
G1 X124.427 Y92.24 E35.08948
G1 X120.536 Y91.483 E35.26483
G1 X116.441 Y91.327 E35.44611
G1 X112.438 Y91.801 E35.62442
G1 X108.235 Y92.998 E35.81774
G1 X104.449 Y94.788 E36.00299
G0 F7500 X104.241 Y94.447
G1 F1500 X101.089 Y96.572 E36.17115
G1 X101.052 Y96.601 E36.17323
G1 X98.691 Y98.696 E36.31286
G1 X98.669 Y98.718 E36.31424
G1 X96.392 Y101.32 E36.46719
G1 X94.992 Y103.4 E36.5781
G1 X140.016 Y103.4 E38.56978
G1 X139.218 Y102.146 E38.63553
G1 X137.394 Y99.849 E38.76528
G1 X134.77 Y97.276 E38.92785
G1 X131.79 Y95.071 E39.09183
G1 X131.732 Y95.038 E39.09479
G1 X128.288 Y93.193 E39.26762
G1 X124.534 Y91.854 E39.44393
G1 X124.506 Y91.847 E39.4452
G1 X120.579 Y91.085 E39.62216
G1 X116.434 Y90.927 E39.80565
G1 X116.37 Y90.931 E39.80849
G1 X112.379 Y91.404 E39.98627
G1 X112.333 Y91.414 E39.98835
G1 X108.096 Y92.622 E40.18325
G1 X104.279 Y94.425 E40.36999
G1 X104.241 Y94.447 E40.37193
G0 F7500 X104.034 Y94.103
G1 F1500 X100.851 Y96.25 E40.54177
G1 X100.797 Y96.292 E40.5448
G1 X98.428 Y98.394 E40.6849
G1 X98.37 Y98.451 E40.68849
G1 X96.103 Y101.041 E40.84075
G1 X96.074 Y101.077 E40.8428
G1 X94.24 Y103.8 E40.98803
G1 X140.746 Y103.8 E43.04526
G1 X139.58 Y101.97 E43.14125
G1 X139.538 Y101.907 E43.1446
G1 X137.682 Y99.57 E43.27662
G1 X135.037 Y96.978 E43.44044
G1 X132.006 Y94.734 E43.60726
G1 X131.928 Y94.689 E43.61125
G1 X128.456 Y92.83 E43.78546
G1 X128.387 Y92.803 E43.78874
G1 X124.652 Y91.471 E43.96415
G1 X124.583 Y91.454 E43.9673
G1 X120.641 Y90.689 E44.14493
G1 X120.574 Y90.683 E44.1479
G1 X116.427 Y90.526 E44.33148
G1 X116.348 Y90.531 E44.33498
G1 X112.311 Y91.01 E44.51482
G1 X112.228 Y91.028 E44.51857
G1 X107.971 Y92.242 E44.71439
G1 X107.914 Y92.264 E44.7171
G1 X104.094 Y94.069 E44.90399
G1 X104.034 Y94.103 E44.90704
G0 F7500 X103.813 Y93.77
G1 F1500 X100.632 Y95.915 E45.07676
G1 X100.542 Y95.984 E45.08178
G1 X98.145 Y98.111 E45.22354
G1 X98.084 Y98.171 E45.22732
G1 X95.785 Y100.797 E45.38171
G1 X95.755 Y100.834 E45.38382
G1 X93.876 Y103.627 E45.53273
G1 X93.575 Y104.2 E45.56136
G1 X141.441 Y104.2 E47.67876
G1 X141.289 Y103.909 E47.69328
G1 X139.862 Y101.67 E47.81073
G1 X138.046 Y99.383 E47.93992
G1 X137.974 Y99.296 E47.94491
G1 X135.296 Y96.671 E48.1108
G1 X132.225 Y94.398 E48.27981
G1 X132.149 Y94.355 E48.28367
G1 X128.623 Y92.466 E48.46062
G1 X128.514 Y92.423 E48.4658
G1 X124.767 Y91.087 E48.64178
G1 X124.656 Y91.061 E48.64682
G1 X120.706 Y90.294 E48.82482
G1 X120.59 Y90.283 E48.82997
G1 X116.43 Y90.126 E49.01412
G1 X116.309 Y90.133 E49.01948
G1 X112.243 Y90.615 E49.20061
G1 X112.131 Y90.64 E49.20568
G1 X107.846 Y91.861 E49.40278
G1 X107.763 Y91.894 E49.40673
G1 X103.909 Y93.715 E49.59529
G1 X103.813 Y93.77 E49.60018
G0 F7500 X103.604 Y93.428
G1 F1500 X100.383 Y95.601 E49.77206
G1 X100.285 Y95.676 E49.77752
G1 X97.892 Y97.8 E49.91906
G1 X97.785 Y97.905 E49.92569
G1 X95.491 Y100.525 E50.07974
G1 X95.431 Y100.599 E50.08395
G1 X93.531 Y103.423 E50.23452
G1 X92.856 Y104.706 E50.29865
G1 X92.987 Y104.661 E50.30477
G1 X93.5 Y104.6 E50.32763
G1 X141.5 Y104.6 E52.45095
G1 X141.917 Y104.64 E52.46948
G1 X142.157 Y104.71 E52.48054
G1 X141.685 Y103.803 E52.52577
G1 X141.632 Y103.705 E52.5307
G1 X140.186 Y101.436 E52.64972
G1 X138.327 Y99.094 E52.78199
G1 X138.276 Y99.033 E52.78551
G1 X135.554 Y96.365 E52.95412
G1 X132.444 Y94.063 E53.12528
G1 X132.309 Y93.986 E53.13215
G1 X128.797 Y92.105 E53.30839
G1 X128.64 Y92.043 E53.31585
G1 X124.883 Y90.704 E53.49229
G1 X124.756 Y90.673 E53.49807
G1 X120.748 Y89.895 E53.67868
G1 X120.626 Y89.884 E53.6841
G1 X116.422 Y89.725 E53.8702
G1 X116.289 Y89.732 E53.87609
G1 X112.173 Y90.221 E54.05945
G1 X112.044 Y90.249 E54.06529
G1 X107.71 Y91.485 E54.26465
G1 X107.598 Y91.529 E54.26997
G1 X103.73 Y93.357 E54.45922
G1 X103.604 Y93.428 E54.46562
G0 F7500 X103.398 Y93.085
G1 F1500 X100.156 Y95.271 E54.63859
G1 X100.029 Y95.369 E54.64568
G1 X97.598 Y97.526 E54.78945
G1 X97.505 Y97.618 E54.79524
G1 X95.175 Y100.279 E54.9517
G1 X95.107 Y100.363 E54.95648
G1 X93.252 Y103.119 E55.10344
G1 X93.185 Y103.223 E55.10891
G1 X91.953 Y105.564 E55.22593
G1 X91.153 Y107.448 E55.31647
G1 X90.515 Y109.315 E55.40375
G1 X90.037 Y111.099 E55.48545
G1 X89.63 Y113.211 E55.5806
G1 X89.363 Y115.65 E55.68913
G1 X89.316 Y118.358 E55.80894
G1 X89.554 Y121.263 E55.93788
G1 X89.981 Y123.646 E56.04497
G1 X90.513 Y125.681 E56.13802
G1 X91.15 Y127.544 E56.22511
G1 X92.069 Y129.681 E56.32801
G1 X93.318 Y132.003 E56.44465
G1 X93.396 Y132.121 E56.4509
G1 X95.313 Y134.903 E56.60036
G1 X95.391 Y134.996 E56.60573
G1 X98.079 Y137.941 E56.78211
G1 X98.203 Y138.055 E56.78956
G1 X101.172 Y140.485 E56.95928
G1 X101.321 Y140.586 E56.96724
G1 X104.489 Y142.515 E57.13131
G1 X104.628 Y142.582 E57.13814
G1 X108.412 Y144.189 E57.32
G1 X108.583 Y144.244 E57.32794
G1 X112.621 Y145.269 E57.51223
G1 X112.839 Y145.301 E57.52198
G1 X116.968 Y145.69 E57.70544
G1 X117.172 Y145.687 E57.71446
G1 X121.317 Y145.437 E57.89816
G1 X121.508 Y145.402 E57.90675
G1 X125.504 Y144.535 E58.08763
G1 X125.687 Y144.474 E58.09616
G1 X129.511 Y143.009 E58.27731
G1 X129.678 Y142.922 E58.28564
G1 X132.905 Y141.116 E58.44922
G1 X133.035 Y141.021 E58.45634
G1 X136.261 Y138.55 E58.6361
G1 X136.35 Y138.464 E58.64158
G1 X138.748 Y136.038 E58.79247
G1 X138.801 Y135.974 E58.79615
G1 X140.661 Y133.583 E58.93015
G1 X140.718 Y133.497 E58.93471
G1 X142.01 Y131.442 E59.04209
G1 X142.071 Y131.328 E59.04781
G1 X143.1 Y129.324 E59.14746
G1 X143.845 Y127.557 E59.23229
G1 X144.488 Y125.677 E59.32019
G1 X144.947 Y123.974 E59.39821
G1 X145.375 Y121.759 E59.498
G1 X145.632 Y119.435 E59.60143
G1 X145.699 Y117.508 E59.68673
G1 X145.611 Y115.278 E59.78545
G1 X145.358 Y113.126 E59.8813
G1 X144.949 Y111.04 E59.97534
G1 X144.489 Y109.325 E60.05388
G1 X143.846 Y107.445 E60.14177
G1 X143.02 Y105.504 E60.23509
G1 X141.974 Y103.495 E60.33528
G1 X140.569 Y101.289 E60.45098
G1 X140.512 Y101.203 E60.45554
G1 X138.64 Y98.845 E60.58873
G1 X138.569 Y98.759 E60.59366
G1 X135.813 Y96.058 E60.76436
G1 X132.662 Y93.727 E60.93774
G1 X132.523 Y93.647 E60.94484
G1 X128.955 Y91.736 E61.12388
G1 X128.795 Y91.673 E61.13149
G1 X125.001 Y90.321 E61.30966
G1 X124.834 Y90.281 E61.31726
G1 X120.81 Y89.5 E61.49858
G1 X120.66 Y89.485 E61.50525
G1 X116.415 Y89.325 E61.69317
G1 X116.235 Y89.335 E61.70114
G1 X112.113 Y89.825 E61.88477
G1 X111.943 Y89.862 E61.89246
G1 X107.585 Y91.104 E62.09292
G1 X107.434 Y91.163 E62.10009
G1 X103.545 Y93.001 E62.29037
G1 X103.398 Y93.085 E62.29786
G0 F7500 X103.19 Y92.743
G1 F1500 X99.915 Y94.952 E62.47261
G1 X99.775 Y95.06 E62.48043
G1 X97.335 Y97.225 E62.62473
G1 X97.206 Y97.351 E62.6327
G1 X94.881 Y100.007 E62.78885
G1 X94.783 Y100.128 E62.79574
G1 X92.903 Y102.921 E62.94467
G1 X92.843 Y103.014 E62.94957
G1 X91.592 Y105.391 E63.06839
G1 X90.781 Y107.301 E63.16018
G1 X90.126 Y109.217 E63.24975
G1 X89.647 Y111.006 E63.33168
G1 X89.236 Y113.142 E63.4279
G1 X88.963 Y115.633 E63.53875
G1 X88.915 Y118.373 E63.65998
G1 X89.156 Y121.315 E63.79056
G1 X89.589 Y123.73 E63.89909
G1 X90.127 Y125.786 E63.9931
G1 X90.782 Y127.701 E64.08263
G1 X91.705 Y129.85 E64.18609
G1 X92.972 Y132.205 E64.30439
G1 X93.063 Y132.342 E64.31166
G1 X94.998 Y135.15 E64.46251
G1 X95.085 Y135.254 E64.46851
G1 X97.796 Y138.224 E64.64639
G1 X97.945 Y138.36 E64.65532
G1 X100.933 Y140.807 E64.82616
G1 X101.105 Y140.924 E64.83537
G1 X104.293 Y142.864 E65.00045
G1 X104.467 Y142.948 E65.009
G1 X108.27 Y144.564 E65.19178
G1 X108.485 Y144.632 E65.20176
G1 X112.541 Y145.661 E65.38686
G1 X112.783 Y145.697 E65.39769
G1 X116.955 Y146.091 E65.58306
G1 X117.203 Y146.086 E65.59403
G1 X121.362 Y145.835 E65.77835
G1 X121.58 Y145.796 E65.78814
G1 X125.61 Y144.922 E65.97056
G1 X125.831 Y144.847 E65.98088
G1 X129.679 Y143.374 E66.16315
G1 X129.846 Y143.286 E66.1715
G1 X133.123 Y141.452 E66.33762
G1 X133.3 Y141.323 E66.3473
G1 X136.519 Y138.857 E66.52668
G1 X136.631 Y138.749 E66.53356
G1 X139.041 Y136.311 E66.68521
G1 X139.131 Y136.201 E66.6915
G1 X140.981 Y133.822 E66.82481
G1 X141.077 Y133.679 E66.83243
G1 X142.349 Y131.654 E66.93821
G1 X142.423 Y131.517 E66.9451
G1 X143.462 Y129.495 E67.04566
G1 X144.217 Y127.704 E67.13164
G1 X144.872 Y125.789 E67.22117
G1 X145.335 Y124.07 E67.29992
G1 X145.773 Y121.806 E67.40193
G1 X146.032 Y119.466 E67.50608
G1 X146.099 Y117.499 E67.59314
G1 X146.01 Y115.241 E67.6931
G1 X145.756 Y113.081 E67.78931
G1 X145.338 Y110.946 E67.88555
G1 X144.873 Y109.213 E67.96492
G1 X144.216 Y107.293 E68.05469
G1 X143.381 Y105.331 E68.14901
G1 X142.391 Y103.427 E68.24394
G1 X142.321 Y103.296 E68.25051
G1 X140.906 Y101.074 E68.36704
G1 X140.832 Y100.961 E68.37302
G1 X138.971 Y98.618 E68.50538
G1 X138.866 Y98.491 E68.51267
G1 X136.075 Y95.756 E68.68553
G1 X135.941 Y95.655 E68.69295
G1 X132.887 Y93.395 E68.86101
G1 X132.694 Y93.285 E68.87084
G1 X129.129 Y91.375 E69.04975
G1 X128.948 Y91.304 E69.05835
G1 X125.108 Y89.935 E69.23869
G1 X124.911 Y89.888 E69.24765
G1 X120.873 Y89.104 E69.42961
G1 X120.676 Y89.086 E69.43836
G1 X116.418 Y88.925 E69.62685
G1 X116.199 Y88.937 E69.63655
G1 X112.045 Y89.43 E69.8216
G1 X111.842 Y89.474 E69.83079
G1 X107.458 Y90.724 E70.03245
G1 X107.283 Y90.793 E70.04077
G1 X103.355 Y92.649 E70.23295
G1 X103.19 Y92.743 E70.24135
G0 F7500 X102.977 Y92.403
G1 F1500 X99.688 Y94.622 E70.41686
G1 X99.526 Y94.747 E70.42591
G1 X97.051 Y96.942 E70.57225
G1 X96.92 Y97.072 E70.58041
G1 X94.565 Y99.761 E70.73853
G1 X94.465 Y99.885 E70.74558
G1 X92.572 Y102.697 E70.89553
G1 X92.496 Y102.814 E70.9017
G1 X91.226 Y105.227 E71.02232
G1 X90.406 Y107.159 E71.11516
G1 X89.75 Y109.079 E71.20492
G1 X89.255 Y110.926 E71.28951
G1 X88.839 Y113.084 E71.38672
G1 X88.563 Y115.603 E71.49882
G1 X88.515 Y118.379 E71.62164
G1 X88.761 Y121.377 E71.7547
G1 X89.197 Y123.812 E71.86413
G1 X89.746 Y125.911 E71.96011
G1 X90.403 Y127.831 E72.04987
G1 X91.345 Y130.023 E72.15541
G1 X92.634 Y132.42 E72.27581
G1 X92.729 Y132.563 E72.2834
G1 X94.673 Y135.385 E72.43499
G1 X94.789 Y135.523 E72.44296
G1 X97.513 Y138.507 E72.62169
G1 X97.676 Y138.656 E72.63146
G1 X100.694 Y141.127 E72.80401
G1 X100.903 Y141.269 E72.81518
G1 X104.101 Y143.216 E72.98081
G1 X104.307 Y143.316 E72.99093
G1 X108.128 Y144.939 E73.17458
G1 X108.371 Y145.016 E73.18585
G1 X112.463 Y146.054 E73.3726
G1 X112.725 Y146.093 E73.38432
G1 X116.943 Y146.491 E73.57173
G1 X117.21 Y146.486 E73.58355
G1 X121.415 Y146.233 E73.76989
G1 X121.652 Y146.19 E73.78055
G1 X125.716 Y145.308 E73.96451
G1 X125.954 Y145.228 E73.97562
G1 X129.844 Y143.738 E74.15989
