;FLAVOR:Marlin
M117 Time Left 2h12m47s
;TIME:7967
;Filament used: 8.06318m
;Layer height: 0.28
;MINX:31.5
;MINY:30.201
;MINZ:0.28
;MAXX:203.5
;MAXY:204.798
;MAXZ:31.92
;POSTPROCESSED
;Generated with Cura_SteamEngine 4.10.0
M140 S75
M105
M190 S75
M104 S235
M105
M109 S235
M82 ;absolute extrusion mode
; Ender 3 Custom Start G-code
G92 E0 ; Reset Extruder
G28 ; Home all axes
G1 Z2.0 F3000 ; Move Z Axis up little to prevent scratching of Heat Bed
G1 X0.1 Y20 Z0.3 F5000.0 ; Move to start position
G1 X0.1 Y200.0 Z0.3 F1500.0 E15 ; Draw the first line
G1 X0.4 Y200.0 Z0.3 F5000.0 ; Move to side a little
G1 X0.4 Y20 Z0.3 F1500.0 E30 ; Draw the second line
G92 E0 ; Reset Extruder
G1 Z2.0 F3000 ; Move Z Axis up little to prevent scratching of Heat Bed
G1 X5 Y20 Z0.3 F5000.0 ; Move over to prevent blob squish
G92 E0
G92 E0
G1 F2700 E-6
;LAYER_COUNT:114
;LAYER:0
M107
M204 S500
M205 X8 Y8
G0 F7500 X33.923 Y32.35 Z0.28
;TYPE:SKIRT
G1 F2700 E0
G1 F1500 X34.522 Y31.835 E0.03494
G1 X35.17 Y31.384 E0.06987
G1 X35.861 Y31 E0.10484
G1 X36.586 Y30.688 E0.13975
G1 X37.339 Y30.451 E0.17467
G1 X38.113 Y30.292 E0.20963
G1 X38.898 Y30.211 E0.24454
G1 X39.3 Y30.201 E0.26233
G1 X195.7 Y30.201 E7.18083
G1 X196.489 Y30.241 E7.21578
G1 X197.269 Y30.36 E7.25068
G1 X198.034 Y30.558 E7.28564
G1 X198.774 Y30.832 E7.32055
G1 X199.483 Y31.18 E7.35548
G1 X200.154 Y31.598 E7.39045
G1 X200.778 Y32.081 E7.42536
G1 X201.351 Y32.624 E7.46028
G1 X201.866 Y33.223 E7.49522
G1 X202.317 Y33.871 E7.53015
G1 X202.701 Y34.562 E7.56512
G1 X203.013 Y35.287 E7.60003
G1 X203.25 Y36.04 E7.63495
G1 X203.409 Y36.814 E7.66991
G1 X203.49 Y37.599 E7.70482
G1 X203.5 Y38.001 E7.72261
G1 X203.5 Y55.001 E8.47462
G1 X203.46 Y55.79 E8.50956
G1 X203.341 Y56.57 E8.54447
G1 X203.143 Y57.335 E8.57942
G1 X202.869 Y58.075 E8.61433
G1 X202.521 Y58.784 E8.64927
G1 X202.103 Y59.455 E8.68424
G1 X201.62 Y60.079 E8.71914
G1 X201.077 Y60.652 E8.75406
G1 X200.478 Y61.167 E8.78901
G1 X199.83 Y61.618 E8.82393
G1 X199.139 Y62.002 E8.8589
G1 X198.414 Y62.314 E8.89382
G1 X197.661 Y62.551 E8.92874
G1 X196.887 Y62.71 E8.96369
G1 X196.102 Y62.791 E8.9986
G1 X195.7 Y62.801 E9.01639
G1 X183.7 Y62.801 E9.54722
G1 X183.7 Y112.88 E11.76252
G1 X183.834 Y113.279 E11.78113
G1 X184.064 Y113.995 E11.8144
G1 X184.289 Y114.721 E11.84802
G1 X184.476 Y115.351 E11.87709
G1 X184.678 Y116.05 E11.90928
G1 X184.869 Y116.741 E11.94099
G1 X185.002 Y117.24 E11.96384
G1 X185.168 Y117.883 E11.99321
G1 X185.354 Y118.638 E12.02761
G1 X185.575 Y119.584 E12.07058
G1 X185.793 Y120.579 E12.11564
G1 X186.033 Y121.766 E12.16921
G1 X186.255 Y122.968 E12.22329
G1 X186.454 Y124.169 E12.27714
G1 X186.631 Y125.367 E12.33071
G1 X186.789 Y126.576 E12.38464
G1 X186.925 Y127.786 E12.43851
G1 X187.041 Y129.001 E12.4925
G1 X187.139 Y130.262 E12.54845
G1 X187.211 Y131.498 E12.60321
G1 X187.262 Y132.699 E12.65639
G1 X187.267 Y132.851 E12.66312
G1 X187.293 Y134.052 E12.71626
G1 X187.3 Y135.133 E12.76408
G1 X187.286 Y136.385 E12.81946
G1 X187.283 Y136.541 E12.82637
G1 X187.238 Y137.936 E12.88811
G1 X187.193 Y138.864 E12.92921
G1 X187.086 Y140.459 E12.99992
G1 X186.993 Y141.536 E13.04774
G1 X186.829 Y143.091 E13.11691
G1 X186.811 Y143.25 E13.12399
G1 X186.671 Y144.351 E13.17308
G1 X186.466 Y145.753 E13.23576
G1 X186.444 Y145.897 E13.24221
G1 X186.244 Y147.094 E13.29589
G1 X186.049 Y148.156 E13.34366
G1 X185.781 Y149.483 E13.40354
G1 X185.518 Y150.672 E13.45741
G1 X185.267 Y151.723 E13.50521
G1 X184.929 Y153.04 E13.56536
G1 X184.606 Y154.201 E13.61866
G1 X184.262 Y155.366 E13.6724
G1 X183.897 Y156.527 E13.72623
G1 X183.508 Y157.693 E13.78061
G1 X183.086 Y158.885 E13.83655
G1 X182.575 Y160.245 E13.90081
G1 X182.518 Y160.393 E13.90783
G1 X182.069 Y161.511 E13.96112
G1 X181.607 Y162.61 E14.01386
G1 X181.103 Y163.751 E14.06904
G1 X180.621 Y164.793 E14.11982
G1 X180.006 Y166.066 E14.18236
G1 X179.535 Y166.994 E14.2284
G1 X178.947 Y168.112 E14.28428
G1 X178.38 Y169.142 E14.33629
G1 X177.77 Y170.208 E14.39062
G1 X177.072 Y171.377 E14.45085
G1 X176.928 Y171.612 E14.46304
G1 X176.253 Y172.684 E14.51908
G1 X175.605 Y173.677 E14.57153
G1 X174.9 Y174.716 E14.62707
G1 X174.205 Y175.7 E14.68036
G1 X173.483 Y176.689 E14.73453
G1 X172.749 Y177.656 E14.78823
G1 X172.003 Y178.606 E14.84167
G1 X171.323 Y179.444 E14.88941
G1 X170.276 Y180.68 E14.96106
G1 X169.568 Y181.486 E15.00852
G1 X168.518 Y182.637 E15.07744
G1 X168.397 Y182.766 E15.08526
G1 X167.431 Y183.775 E15.14705
G1 X166.734 Y184.478 E15.19084
G1 X165.856 Y185.337 E15.24518
G1 X164.913 Y186.226 E15.30251
G1 X164.004 Y187.052 E15.35684
G1 X163.083 Y187.859 E15.41101
G1 X162.166 Y188.637 E15.46421
G1 X161.25 Y189.388 E15.5166
G1 X160.3 Y190.14 E15.5702
G1 X159.317 Y190.887 E15.62482
G1 X158.347 Y191.6 E15.67807
G1 X158.237 Y191.68 E15.68409
G1 X157.356 Y192.303 E15.73182
G1 X156.354 Y192.987 E15.78548
G1 X155.333 Y193.658 E15.83953
G1 X154.306 Y194.308 E15.8933
G1 X153.103 Y195.038 E15.95554
G1 X152.032 Y195.659 E16.01031
G1 X150.977 Y196.248 E16.06376
G1 X150.847 Y196.319 E16.07031
G1 X149.681 Y196.938 E16.12871
G1 X149.449 Y197.059 E16.14028
G1 X148.486 Y197.546 E16.18802
G1 X147.38 Y198.08 E16.24235
G1 X146.259 Y198.6 E16.29701
G1 X146.111 Y198.667 E16.3042
G1 X144.983 Y199.161 E16.35867
G1 X143.646 Y199.717 E16.42272
G1 X142.509 Y200.166 E16.4768
G1 X141.36 Y200.595 E16.53105
G1 X140.252 Y200.988 E16.58306
G1 X139.094 Y201.376 E16.63708
G1 X138.966 Y201.418 E16.64304
G1 X137.804 Y201.782 E16.69691
G1 X136.639 Y202.125 E16.75063
G1 X135.459 Y202.45 E16.80477
G1 X134.233 Y202.765 E16.86077
G1 X133.035 Y203.049 E16.91523
G1 X132.895 Y203.081 E16.92158
G1 X131.477 Y203.387 E16.98575
G1 X130.31 Y203.615 E17.03835
G1 X129.104 Y203.828 E17.09253
G1 X127.704 Y204.05 E17.15523
G1 X126.669 Y204.195 E17.20146
G1 X125.641 Y204.324 E17.24729
G1 X124.079 Y204.489 E17.31678
G1 X123.915 Y204.505 E17.32407
G1 X122.716 Y204.604 E17.37728
G1 X121.49 Y204.686 E17.43164
G1 X120.262 Y204.745 E17.48602
G1 X119.204 Y204.779 E17.53285
G1 X118.001 Y204.798 E17.58607
G1 X116.765 Y204.798 E17.64075
G1 X115.715 Y204.778 E17.6872
G1 X114.51 Y204.736 E17.74054
G1 X113.158 Y204.666 E17.80043
G1 X112.08 Y204.59 E17.84823
G1 X110.744 Y204.473 E17.90756
G1 X109.7 Y204.364 E17.95399
G1 X108.261 Y204.186 E18.01813
G1 X107.043 Y204.012 E18.07256
G1 X105.852 Y203.822 E18.12591
G1 X105.704 Y203.797 E18.13255
G1 X104.522 Y203.583 E18.18569
G1 X103.321 Y203.346 E18.23984
G1 X102.116 Y203.086 E18.29437
G1 X100.904 Y202.799 E18.34947
G1 X99.544 Y202.451 E18.41157
G1 X98.399 Y202.136 E18.4641
G1 X97.333 Y201.824 E18.51323
G1 X96.161 Y201.458 E18.56754
G1 X94.891 Y201.037 E18.62673
G1 X93.737 Y200.631 E18.68085
G1 X92.594 Y200.205 E18.73481
G1 X91.479 Y199.77 E18.78775
G1 X91.317 Y199.705 E18.79547
G1 X90.031 Y199.168 E18.85712
G1 X89.095 Y198.759 E18.9023
G1 X87.954 Y198.238 E18.95779
G1 X86.842 Y197.707 E19.0123
G1 X85.713 Y197.142 E19.06815
G1 X85.589 Y197.079 E19.0743
G1 X84.522 Y196.518 E19.12763
G1 X83.45 Y195.932 E19.18167
G1 X82.388 Y195.327 E19.23574
G1 X81.342 Y194.705 E19.28957
G1 X80.316 Y194.071 E19.34292
G1 X79.294 Y193.416 E19.39662
G1 X78.272 Y192.736 E19.45092
G1 X77.383 Y192.121 E19.49874
G1 X76.213 Y191.28 E19.56248
G1 X75.112 Y190.456 E19.62331
G1 X74.113 Y189.678 E19.67933
G1 X73.156 Y188.904 E19.73377
G1 X72.115 Y188.031 E19.79387
G1 X71.162 Y187.201 E19.84978
G1 X70.308 Y186.429 E19.9007
G1 X69.406 Y185.588 E19.95525
G1 X68.533 Y184.741 E20.00906
G1 X67.506 Y183.71 E20.07344
G1 X66.7 Y182.868 E20.125
G1 X65.964 Y182.076 E20.17282
G1 X65.015 Y181.014 E20.23583
G1 X64.793 Y180.76 E20.25075
G1 X64.096 Y179.945 E20.29819
G1 X63.204 Y178.863 E20.36022
G1 X62.512 Y177.994 E20.40936
G1 X61.666 Y176.887 E20.47099
G1 X61.575 Y176.766 E20.47769
G1 X60.759 Y175.651 E20.53881
G1 X60.137 Y174.768 E20.58659
G1 X59.454 Y173.763 E20.64034
G1 X58.79 Y172.75 E20.69392
G1 X58.708 Y172.623 E20.70061
G1 X57.937 Y171.391 E20.7649
G1 X57.319 Y170.358 E20.81815
G1 X56.779 Y169.424 E20.86587
G1 X56.092 Y168.183 E20.92862
G1 X56.019 Y168.048 E20.93541
G1 X55.444 Y166.954 E20.99008
G1 X54.965 Y166.006 E21.03706
G1 X54.365 Y164.766 E21.098
G1 X53.856 Y163.662 E21.15178
G1 X53.377 Y162.574 E21.20436
G1 X52.896 Y161.427 E21.25938
G1 X52.445 Y160.297 E21.3132
G1 X52.072 Y159.315 E21.35967
G1 X51.65 Y158.147 E21.41461
G1 X51.194 Y156.806 E21.47726
G1 X51.144 Y156.654 E21.48434
G1 X50.718 Y155.302 E21.54705
G1 X50.367 Y154.108 E21.6021
G1 X50.041 Y152.923 E21.65647
G1 X49.691 Y151.553 E21.71902
G1 X49.443 Y150.502 E21.76679
G1 X49.184 Y149.317 E21.82044
G1 X49.154 Y149.174 E21.82691
G1 X48.914 Y147.96 E21.88165
G1 X48.721 Y146.897 E21.92944
G1 X48.494 Y145.496 E21.99222
G1 X48.471 Y145.345 E21.99898
G1 X48.303 Y144.152 E22.05227
G1 X48.169 Y143.08 E22.10006
G1 X48.02 Y141.661 E22.16318
G1 X47.914 Y140.451 E22.21691
G1 X47.822 Y139.107 E22.2765
G1 X47.767 Y138.02 E22.32465
G1 X47.731 Y137.08 E22.36626
G1 X47.717 Y136.539 E22.3902
G1 X47.703 Y135.55 E22.43396
G1 X47.7 Y134.741 E22.46974
G1 X47.706 Y134.077 E22.49912
G1 X47.716 Y133.501 E22.5246
G1 X47.735 Y132.777 E22.55664
G1 X47.765 Y131.982 E22.59183
G1 X47.809 Y131.094 E22.63116
G1 X47.881 Y129.983 E22.68041
G1 X47.982 Y128.725 E22.73624
G1 X48.008 Y128.455 E22.74824
G1 X48.155 Y127.045 E22.81095
G1 X48.296 Y125.899 E22.86202
G1 X48.472 Y124.65 E22.91782
G1 X48.674 Y123.38 E22.97471
G1 X48.899 Y122.115 E23.03154
G1 X49.119 Y120.998 E23.0819
G1 X49.337 Y119.974 E23.12822
G1 X49.545 Y119.059 E23.16973
G1 X49.742 Y118.235 E23.2072
G1 X49.926 Y117.511 E23.24025
G1 X50.199 Y116.491 E23.28696
G1 X50.432 Y115.661 E23.32509
G1 X50.651 Y114.92 E23.35927
G1 X50.869 Y114.208 E23.39221
G1 X51.051 Y113.632 E23.41893
G1 X51.3 Y112.872 E23.45431
G1 X51.3 Y62.801 E25.66925
G1 X39.3 Y62.801 E26.20008
G1 X38.511 Y62.761 E26.23503
G1 X37.731 Y62.642 E26.26993
G1 X36.966 Y62.444 E26.30489
G1 X36.226 Y62.17 E26.3398
G1 X35.517 Y61.822 E26.37473
G1 X34.846 Y61.404 E26.4097
G1 X34.222 Y60.921 E26.44461
G1 X33.649 Y60.378 E26.47953
G1 X33.134 Y59.779 E26.51447
G1 X32.683 Y59.131 E26.5494
G1 X32.299 Y58.44 E26.58437
G1 X31.987 Y57.715 E26.61928
G1 X31.75 Y56.962 E26.6542
G1 X31.591 Y56.188 E26.68916
G1 X31.51 Y55.403 E26.72407
G1 X31.5 Y55.001 E26.74186
G1 X31.5 Y38.001 E27.49387
G1 X31.54 Y37.212 E27.52881
G1 X31.659 Y36.432 E27.56372
G1 X31.857 Y35.667 E27.59867
G1 X32.131 Y34.927 E27.63358
G1 X32.479 Y34.218 E27.66852
G1 X32.897 Y33.547 E27.70349
G1 X33.38 Y32.923 E27.73839
G1 X33.923 Y32.35 E27.77331
G0 F7500 X34.316 Y32.531
G1 F1500 X34.911 Y32.043 E27.80736
G1 X35.553 Y31.62 E27.84137
G1 X36.236 Y31.265 E27.87542
G1 X36.951 Y30.984 E27.9094
G1 X37.693 Y30.778 E27.94346
G1 X38.451 Y30.65 E27.97747
G1 X39.3 Y30.601 E28.01509
G1 X195.7 Y30.601 E34.9336
G1 X196.468 Y30.641 E34.96762
G1 X197.228 Y30.76 E35.00164
G1 X197.971 Y30.958 E35.03566
G1 X198.69 Y31.232 E35.0697
G1 X199.376 Y31.579 E35.1037
G1 X200.023 Y31.995 E35.13773
G1 X200.623 Y32.476 E35.17175
G1 X201.17 Y33.017 E35.20578
G1 X201.658 Y33.612 E35.23982
G1 X202.081 Y34.254 E35.27383
G1 X202.436 Y34.937 E35.30788
G1 X202.717 Y35.652 E35.34186
G1 X202.923 Y36.394 E35.37593
G1 X203.051 Y37.152 E35.40993
G1 X203.1 Y38.001 E35.44755
G1 X203.1 Y55.001 E36.19956
G1 X203.06 Y55.769 E36.23358
G1 X202.941 Y56.529 E36.26761
G1 X202.743 Y57.272 E36.30163
G1 X202.469 Y57.991 E36.33566
G1 X202.122 Y58.677 E36.36967
G1 X201.706 Y59.324 E36.4037
G1 X201.225 Y59.924 E36.43771
G1 X200.684 Y60.471 E36.47175
G1 X200.089 Y60.959 E36.50579
G1 X199.447 Y61.382 E36.5398
G1 X198.764 Y61.737 E36.57385
G1 X198.049 Y62.018 E36.60783
G1 X197.307 Y62.224 E36.6419
G1 X196.549 Y62.352 E36.6759
G1 X195.7 Y62.401 E36.71352
G1 X183.3 Y62.401 E37.26205
G1 X183.3 Y112.946 E39.49795
G1 X183.453 Y113.401 E39.51919
G1 X183.682 Y114.114 E39.55232
G1 X183.906 Y114.835 E39.58571
G1 X184.092 Y115.462 E39.61465
G1 X184.293 Y116.157 E39.64665
G1 X184.483 Y116.844 E39.67818
G1 X184.615 Y117.341 E39.70093
G1 X184.78 Y117.98 E39.73012
G1 X184.965 Y118.729 E39.76425
G1 X185.185 Y119.67 E39.807
G1 X185.401 Y120.658 E39.85174
G1 X185.64 Y121.839 E39.90504
G1 X185.837 Y122.9 E39.95277
G1 X186.038 Y124.1 E40.0066
G1 X186.235 Y125.419 E40.06559
G1 X186.392 Y126.621 E40.11921
G1 X186.514 Y127.695 E40.16703
G1 X186.642 Y129.032 E40.22644
G1 X186.75 Y130.441 E40.28896
G1 X186.818 Y131.637 E40.34195
G1 X186.863 Y132.716 E40.38972
G1 X186.893 Y134.055 E40.44897
G1 X186.9 Y135.136 E40.49679
G1 X186.886 Y136.381 E40.55186
G1 X186.883 Y136.528 E40.55837
G1 X186.838 Y137.916 E40.6198
G1 X186.785 Y138.987 E40.66723
G1 X186.676 Y140.577 E40.73773
G1 X186.595 Y141.502 E40.77881
G1 X186.431 Y143.049 E40.84763
G1 X186.414 Y143.199 E40.8543
G1 X186.274 Y144.3 E40.9034
G1 X186.07 Y145.695 E40.96576
G1 X185.872 Y146.897 E41.01965
G1 X185.655 Y148.083 E41.07299
G1 X185.416 Y149.272 E41.12664
G1 X185.158 Y150.451 E41.18002
G1 X184.878 Y151.63 E41.23363
G1 X184.581 Y152.793 E41.28673
G1 X184.544 Y152.933 E41.29313
G1 X184.223 Y154.088 E41.34616
G1 X183.881 Y155.246 E41.39957
G1 X183.518 Y156.401 E41.45313
G1 X183.131 Y157.56 E41.50718
G1 X182.709 Y158.752 E41.56312
G1 X182.201 Y160.104 E41.62701
G1 X181.7 Y161.357 E41.6867
G1 X181.241 Y162.449 E41.7391
G1 X180.74 Y163.584 E41.79398
G1 X180.261 Y164.62 E41.84447
G1 X179.649 Y165.885 E41.90664
G1 X179.181 Y166.809 E41.95246
G1 X178.665 Y167.793 E42.0016
G1 X178.033 Y168.943 E42.05965
G1 X177.497 Y169.882 E42.10748
G1 X176.731 Y171.168 E42.1737
G1 X176.589 Y171.399 E42.18569
G1 X175.849 Y172.572 E42.24704
G1 X175.273 Y173.453 E42.2936
G1 X174.573 Y174.486 E42.3488
G1 X173.951 Y175.369 E42.39658
G1 X173.246 Y176.337 E42.44955
G1 X172.435 Y177.409 E42.50902
G1 X171.692 Y178.354 E42.56219
G1 X171.012 Y179.192 E42.60993
G1 X170.908 Y179.317 E42.61713
G1 X169.882 Y180.525 E42.68724
G1 X169.178 Y181.322 E42.73428
G1 X168.223 Y182.367 E42.7969
G1 X168.108 Y182.49 E42.80435
G1 X167.147 Y183.494 E42.86583
G1 X166.455 Y184.192 E42.90931
G1 X165.683 Y184.948 E42.9571
G1 X164.535 Y186.03 E43.02689
G1 X163.634 Y186.846 E43.08066
G1 X162.73 Y187.635 E43.13374
G1 X161.81 Y188.413 E43.18704
G1 X160.899 Y189.157 E43.23907
G1 X159.937 Y189.915 E43.29325
G1 X158.981 Y190.639 E43.34629
G1 X158.006 Y191.353 E43.39975
G1 X157.021 Y192.048 E43.45308
G1 X156.016 Y192.732 E43.50686
G1 X155.113 Y193.324 E43.55462
G1 X153.977 Y194.041 E43.61404
G1 X152.896 Y194.696 E43.66996
G1 X151.726 Y195.374 E43.72977
G1 X150.783 Y195.899 E43.77752
G1 X149.567 Y196.547 E43.83847
G1 X149.269 Y196.702 E43.85333
G1 X148.306 Y197.189 E43.90107
G1 X147.206 Y197.72 E43.9551
G1 X146.091 Y198.237 E44.00947
G1 X144.823 Y198.794 E44.07073
G1 X143.493 Y199.347 E44.13445
G1 X143.368 Y199.398 E44.14042
G1 X142.362 Y199.794 E44.18824
G1 X141.22 Y200.22 E44.24216
G1 X140.119 Y200.611 E44.29385
G1 X138.967 Y200.997 E44.34759
G1 X137.691 Y201.398 E44.40676
G1 X136.532 Y201.739 E44.4602
G1 X135.359 Y202.062 E44.51402
G1 X133.993 Y202.412 E44.5764
G1 X132.81 Y202.69 E44.63015
G1 X131.542 Y202.965 E44.68755
G1 X130.24 Y203.221 E44.74625
G1 X129.041 Y203.433 E44.80011
G1 X127.5 Y203.676 E44.86912
G1 X126.513 Y203.812 E44.91319
G1 X125.447 Y203.944 E44.96071
G1 X124.037 Y204.092 E45.02342
G1 X122.806 Y204.196 E45.07807
G1 X121.611 Y204.278 E45.13106
G1 X120.362 Y204.34 E45.18638
G1 X119.321 Y204.376 E45.23245
G1 X118.117 Y204.397 E45.28572
G1 X116.921 Y204.399 E45.33863
G1 X116.773 Y204.398 E45.34518
G1 X115.723 Y204.378 E45.39163
G1 X114.401 Y204.331 E45.45015
G1 X113.187 Y204.267 E45.50393
G1 X111.984 Y204.181 E45.55728
G1 X110.786 Y204.075 E45.61048
G1 X109.742 Y203.966 E45.65691
G1 X108.31 Y203.789 E45.72074
G1 X108.17 Y203.771 E45.72698
G1 X107.1 Y203.617 E45.77481
G1 X105.775 Y203.403 E45.83418
G1 X104.599 Y203.19 E45.88705
G1 X103.405 Y202.955 E45.94088
G1 X102.2 Y202.695 E45.99541
G1 X100.997 Y202.41 E46.0501
G1 X99.644 Y202.064 E46.11187
G1 X98.627 Y201.785 E46.15852
G1 X97.445 Y201.44 E46.21299
G1 X96.281 Y201.077 E46.26693
G1 X94.889 Y200.613 E46.33184
G1 X93.746 Y200.208 E46.38548
G1 X92.63 Y199.791 E46.43818
G1 X91.624 Y199.398 E46.48596
G1 X91.471 Y199.336 E46.49326
G1 X90.191 Y198.802 E46.55461
G1 X89.261 Y198.395 E46.59952
