;FLAVOR:Marlin
M117 Time Left 0h21m41s
;TIME:1301
;Filament used: 1.2986m
;Layer height: 0.28
;MINX:31.5
;MINY:36.758
;MINZ:0.28
;MAXX:203.5
;MAXY:198.221
;MAXZ:0.56
;POSTPROCESSED
;Generated with Cura_SteamEngine 4.10.0
M140 S75
M105
M190 S75
M104 S235
M105
M109 S235
M82 ;absolute extrusion mode
; Ender 3 Custom Start G-code
G92 E0 ; Reset Extruder
G28 ; Home all axes
; ***SET NEW E STEP *** (93 is factory value - 95 mine - start)
G90                          ; Force coordinates to be absolute relative to the origin
M92 E95 ;					 ; ***SET NEW E STEP *** (93 is factory value - 95 mine - end)
G90                          ; Force coordinates to be absolute relative to the origin
G28                          ; Home X/Y/Z axis
G92 E0 ; Reset Extruder
G28 ; Home all axes
G1 Z2.0 F3000 ; Move Z Axis up little to prevent scratching of Heat Bed
G1 X0.1 Y20 Z0.3 F5000.0 ; Move to start position
G1 X0.1 Y200.0 Z0.3 F1500.0 E15 ; Draw the first line
G1 X0.4 Y200.0 Z0.3 F5000.0 ; Move to side a little
G1 X0.4 Y20 Z0.3 F1500.0 E30 ; Draw the second line
G92 E0 ; Reset Extruder
G1 Z2.0 F3000 ; Move Z Axis up little to prevent scratching of Heat Bed
G1 X5 Y20 Z0.3 F5000.0 ; Move over to prevent blob squish
G92 E0
G92 E0
G1 F2700 E-6
;LAYER_COUNT:2
;LAYER:0
M107
M204 S500
M205 X8 Y8
G0 F7500 X33.923 Y38.907 Z0.28
;TYPE:SKIRT
G1 F2700 E0
G1 F1500 X34.522 Y38.392 E0.03494
G1 X35.17 Y37.941 E0.06987
G1 X35.861 Y37.557 E0.10484
G1 X36.586 Y37.245 E0.13975
G1 X37.339 Y37.008 E0.17467
G1 X38.113 Y36.849 E0.20963
G1 X38.898 Y36.768 E0.24454
G1 X39.3 Y36.758 E0.26233
G1 X195.7 Y36.758 E7.18083
G1 X196.489 Y36.798 E7.21578
G1 X197.269 Y36.917 E7.25068
G1 X198.034 Y37.115 E7.28564
G1 X198.774 Y37.389 E7.32055
G1 X199.483 Y37.737 E7.35548
G1 X200.154 Y38.155 E7.39045
G1 X200.778 Y38.638 E7.42536
G1 X201.351 Y39.181 E7.46028
G1 X201.866 Y39.78 E7.49522
G1 X202.317 Y40.428 E7.53015
G1 X202.701 Y41.119 E7.56512
G1 X203.013 Y41.844 E7.60003
G1 X203.25 Y42.597 E7.63495
G1 X203.409 Y43.371 E7.66991
G1 X203.49 Y44.156 E7.70482
G1 X203.5 Y44.558 E7.72261
G1 X203.5 Y63.558 E8.56309
G1 X203.46 Y64.347 E8.59804
G1 X203.341 Y65.127 E8.63294
G1 X203.143 Y65.892 E8.66789
G1 X202.869 Y66.632 E8.7028
G1 X202.521 Y67.341 E8.73774
G1 X202.103 Y68.012 E8.77271
G1 X201.62 Y68.636 E8.80762
G1 X201.077 Y69.209 E8.84254
G1 X200.478 Y69.724 E8.87748
G1 X199.83 Y70.175 E8.91241
G1 X199.139 Y70.559 E8.94737
G1 X198.414 Y70.871 E8.98229
G1 X197.661 Y71.108 E9.01721
G1 X196.887 Y71.267 E9.05216
G1 X196.102 Y71.348 E9.08707
G1 X195.7 Y71.358 E9.10486
G1 X183.7 Y71.358 E9.63569
G1 X183.7 Y106.452 E11.18811
G1 X183.887 Y107.003 E11.21385
G1 X183.959 Y107.225 E11.22417
G1 X184.148 Y107.842 E11.25272
G1 X184.64 Y109.476 E11.32821
G1 X184.714 Y109.74 E11.34034
G1 X185.272 Y111.86 E11.43731
G1 X185.345 Y112.161 E11.45101
G1 X185.523 Y112.967 E11.48752
G1 X185.994 Y115.135 E11.58566
G1 X186.056 Y115.452 E11.59995
G1 X186.199 Y116.271 E11.63673
G1 X186.539 Y118.291 E11.72734
G1 X186.582 Y118.581 E11.74031
G1 X186.679 Y119.33 E11.77372
G1 X186.89 Y121.024 E11.84924
G1 X186.919 Y121.288 E11.86099
G1 X186.984 Y122.02 E11.89349
G1 X187.142 Y123.892 E11.9766
G1 X187.16 Y124.148 E11.98795
G1 X187.195 Y124.834 E12.01834
G1 X187.265 Y126.367 E12.08622
G1 X187.272 Y126.597 E12.0964
G1 X187.281 Y127.187 E12.1225
G1 X187.299 Y128.723 E12.19045
G1 X187.299 Y128.953 E12.20063
G1 X187.268 Y130.693 E12.27761
G1 X187.26 Y130.936 E12.28836
G1 X187.158 Y133.015 E12.38044
G1 X187.14 Y133.277 E12.39206
G1 X187.083 Y133.969 E12.42277
G1 X186.936 Y135.67 E12.4983
G1 X186.908 Y135.943 E12.51044
G1 X186.815 Y136.703 E12.54431
G1 X186.578 Y138.566 E12.62739
G1 X186.533 Y138.871 E12.64102
G1 X186.398 Y139.675 E12.67709
G1 X186.052 Y141.694 E12.7677
G1 X185.984 Y142.042 E12.78339
G1 X185.783 Y142.964 E12.82513
G1 X185.262 Y145.298 E12.93092
G1 X185.158 Y145.71 E12.94972
G1 X184.836 Y146.856 E13.00237
G1 X184.036 Y149.645 E13.13072
G1 X183.877 Y150.136 E13.15355
G1 X183.414 Y151.422 E13.21401
G1 X182.243 Y154.63 E13.36508
G1 X182.034 Y155.145 E13.38967
G1 X181.473 Y156.395 E13.45028
G1 X180.061 Y159.503 E13.60129
G1 X179.783 Y160.057 E13.6287
G1 X179.002 Y161.466 E13.69997
G1 X177 Y165.04 E13.88118
G1 X176.605 Y165.672 E13.91415
G1 X175.475 Y167.302 E14.00189
G1 X172.631 Y171.352 E14.2208
G1 X172.115 Y172.009 E14.25776
G1 X170.759 Y173.556 E14.34876
G1 X167.242 Y177.508 E14.58278
G1 X166.574 Y178.174 E14.62451
G1 X164.661 Y179.86 E14.73731
G1 X159.889 Y183.992 E15.01654
G1 X158.987 Y184.665 E15.06632
G1 X156.536 Y186.233 E15.19503
G1 X150.324 Y190.132 E15.51947
G1 X149.634 Y190.518 E15.55445
G1 X149.13 Y190.745 E15.5789
G1 X145.859 Y192.083 E15.73523
G1 X137.455 Y195.409 E16.13504
G1 X136.707 Y195.662 E16.16997
G1 X136 Y195.827 E16.20209
G1 X132.27 Y196.514 E16.36987
G1 X122.857 Y198.113 E16.79222
G1 X122.073 Y198.206 E16.82715
G1 X121.374 Y198.221 E16.85808
G1 X117.828 Y198.14 E17.01498
G1 X109.134 Y197.824 E17.39982
G1 X108.347 Y197.755 E17.43477
G1 X107.648 Y197.626 E17.46621
G1 X103.97 Y196.768 E17.63328
G1 X94.7 Y194.489 E18.05556
G1 X93.944 Y194.262 E18.09047
G1 X93.267 Y193.985 E18.12283
G1 X90.011 Y192.466 E18.28177
G1 X82.02 Y188.629 E18.67389
G1 X81.326 Y188.252 E18.70883
G1 X80.796 Y187.897 E18.73705
G1 X78.096 Y185.925 E18.88495
G1 X71.397 Y180.927 E19.25468
G1 X70.788 Y180.423 E19.28965
G1 X70.409 Y180.05 E19.31317
G1 X68.314 Y177.847 E19.44765
G1 X63.083 Y172.232 E19.78712
G1 X62.345 Y171.308 E19.83943
G1 X60.806 Y169.051 E19.96028
G1 X57.107 Y163.517 E20.25473
G1 X56.569 Y162.577 E20.30264
G1 X55.463 Y160.288 E20.4151
G1 X52.689 Y154.425 E20.70202
G1 X52.314 Y153.476 E20.74715
G1 X51.572 Y151.167 E20.85444
G1 X49.795 Y145.465 E21.11864
G1 X49.58 Y144.602 E21.15798
G1 X49.208 Y142.65 E21.24588
G1 X48.345 Y137.947 E21.4574
G1 X48.25 Y137.257 E21.48821
G1 X48.119 Y135.838 E21.55125
G1 X47.805 Y132.268 E21.70978
G1 X47.776 Y131.72 E21.73405
G1 X47.755 Y130.481 E21.78887
G1 X47.713 Y127.409 E21.92478
G1 X47.723 Y126.888 E21.94783
G1 X47.938 Y122.84 E22.12715
G1 X47.979 Y122.352 E22.14881
G1 X48.414 Y118.617 E22.31515
G1 X48.479 Y118.172 E22.33504
G1 X49.059 Y114.863 E22.48365
G1 X49.132 Y114.498 E22.50012
G1 X49.704 Y111.956 E22.61538
G1 X49.78 Y111.649 E22.62937
G1 X50.394 Y109.358 E22.73429
G1 X50.471 Y109.09 E22.74662
G1 X51.099 Y107.042 E22.84138
G1 X51.176 Y106.804 E22.85245
G1 X51.3 Y106.442 E22.86937
G1 X51.3 Y71.358 E24.42135
G1 X39.3 Y71.358 E24.95218
G1 X38.511 Y71.318 E24.98713
G1 X37.731 Y71.199 E25.02203
G1 X36.966 Y71.001 E25.05699
G1 X36.226 Y70.727 E25.09189
G1 X35.517 Y70.379 E25.12683
G1 X34.846 Y69.961 E25.1618
G1 X34.222 Y69.478 E25.19671
G1 X33.649 Y68.935 E25.23163
G1 X33.134 Y68.336 E25.26657
G1 X32.683 Y67.688 E25.3015
G1 X32.299 Y66.997 E25.33647
G1 X31.987 Y66.272 E25.37138
G1 X31.75 Y65.519 E25.4063
G1 X31.591 Y64.745 E25.44126
G1 X31.51 Y63.96 E25.47617
G1 X31.5 Y63.558 E25.49395
G1 X31.5 Y44.558 E26.33444
G1 X31.54 Y43.769 E26.36938
G1 X31.659 Y42.989 E26.40429
G1 X31.857 Y42.224 E26.43924
G1 X32.131 Y41.484 E26.47415
G1 X32.479 Y40.775 E26.50909
G1 X32.897 Y40.104 E26.54406
G1 X33.38 Y39.48 E26.57896
G1 X33.923 Y38.907 E26.61388
G0 F7500 X34.316 Y39.088
G1 F1500 X34.911 Y38.6 E26.64793
G1 X35.553 Y38.177 E26.68194
G1 X36.236 Y37.822 E26.71599
G1 X36.951 Y37.541 E26.74997
G1 X37.693 Y37.335 E26.78403
G1 X38.451 Y37.207 E26.81804
G1 X39.3 Y37.158 E26.85566
G1 X195.7 Y37.158 E33.77417
G1 X196.468 Y37.198 E33.80818
G1 X197.228 Y37.317 E33.84221
G1 X197.971 Y37.515 E33.87623
G1 X198.69 Y37.789 E33.91027
G1 X199.376 Y38.136 E33.94427
G1 X200.023 Y38.552 E33.9783
G1 X200.623 Y39.033 E34.01232
G1 X201.17 Y39.574 E34.04635
G1 X201.658 Y40.169 E34.08039
G1 X202.081 Y40.811 E34.1144
G1 X202.436 Y41.494 E34.14845
G1 X202.717 Y42.209 E34.18243
G1 X202.923 Y42.951 E34.2165
G1 X203.051 Y43.709 E34.2505
G1 X203.1 Y44.558 E34.28812
G1 X203.1 Y63.558 E35.12861
G1 X203.06 Y64.326 E35.16263
G1 X202.941 Y65.086 E35.19665
G1 X202.743 Y65.829 E35.23067
G1 X202.469 Y66.548 E35.26471
G1 X202.122 Y67.234 E35.29871
G1 X201.706 Y67.881 E35.33274
G1 X201.225 Y68.481 E35.36676
G1 X200.684 Y69.028 E35.40079
G1 X200.089 Y69.516 E35.43483
G1 X199.447 Y69.939 E35.46884
G1 X198.764 Y70.294 E35.50289
G1 X198.049 Y70.575 E35.53687
G1 X197.307 Y70.781 E35.57094
G1 X196.549 Y70.909 E35.60494
G1 X195.7 Y70.958 E35.64256
G1 X183.3 Y70.958 E36.19109
G1 X183.3 Y106.519 E37.76416
G1 X183.508 Y107.132 E37.7928
G1 X183.576 Y107.342 E37.80256
G1 X183.765 Y107.957 E37.83103
G1 X184.257 Y109.591 E37.90651
G1 X184.327 Y109.841 E37.918
G1 X184.885 Y111.961 E38.01497
G1 X184.955 Y112.248 E38.02804
G1 X185.132 Y113.052 E38.06446
G1 X185.603 Y115.22 E38.1626
G1 X185.662 Y115.521 E38.17617
G1 X185.804 Y116.338 E38.21285
G1 X186.144 Y118.358 E38.30346
G1 X186.185 Y118.632 E38.31572
G1 X186.282 Y119.379 E38.34904
G1 X186.493 Y121.073 E38.42455
G1 X186.52 Y121.324 E38.43572
G1 X186.586 Y122.054 E38.46814
G1 X186.744 Y123.926 E38.55125
G1 X186.76 Y124.168 E38.56198
G1 X186.795 Y124.852 E38.59227
G1 X186.865 Y126.385 E38.66016
G1 X186.872 Y126.603 E38.66981
G1 X186.881 Y127.191 E38.69582
G1 X186.899 Y128.727 E38.76377
G1 X186.899 Y128.946 E38.77346
G1 X186.868 Y130.686 E38.85044
G1 X186.86 Y130.917 E38.86067
G1 X186.758 Y132.996 E38.95274
G1 X186.742 Y133.244 E38.96374
G1 X186.685 Y133.934 E38.99436
G1 X186.538 Y135.635 E39.06989
G1 X186.51 Y135.895 E39.08146
G1 X186.418 Y136.653 E39.11524
G1 X186.181 Y138.516 E39.19831
G1 X186.138 Y138.805 E39.21124
G1 X186.004 Y139.608 E39.24725
G1 X185.658 Y141.627 E39.33786
G1 X185.593 Y141.956 E39.3527
G1 X185.392 Y142.877 E39.3944
G1 X184.871 Y145.211 E39.50019
G1 X184.773 Y145.602 E39.51802
G1 X184.451 Y146.745 E39.57055
G1 X183.651 Y149.534 E39.6989
G1 X183.501 Y150 E39.72055
G1 X183.038 Y151.284 E39.78093
G1 X181.867 Y154.492 E39.932
G1 X181.669 Y154.981 E39.95534
G1 X181.109 Y156.23 E40.01589
G1 X179.697 Y159.338 E40.1669
G1 X179.433 Y159.864 E40.19293
G1 X178.653 Y161.27 E40.26405
G1 X176.651 Y164.844 E40.44527
G1 X176.276 Y165.444 E40.47657
G1 X175.148 Y167.072 E40.56418
G1 X172.304 Y171.122 E40.7831
G1 X171.814 Y171.746 E40.81819
G1 X170.46 Y173.291 E40.90907
G1 X166.943 Y177.243 E41.14309
G1 X166.309 Y177.874 E41.18266
G1 X164.399 Y179.557 E41.29527
G1 X159.627 Y183.689 E41.5745
G1 X158.772 Y184.328 E41.62172
G1 X156.323 Y185.895 E41.75034
G1 X150.111 Y189.794 E42.07477
G1 X149.439 Y190.168 E42.10879
G1 X148.979 Y190.375 E42.13111
G1 X145.712 Y191.711 E42.28724
G1 X137.308 Y195.037 E42.68706
G1 X136.579 Y195.282 E42.72108
G1 X135.927 Y195.433 E42.75068
G1 X132.203 Y196.119 E42.91819
G1 X122.79 Y197.718 E43.34055
G1 X122.026 Y197.808 E43.37458
G1 X121.383 Y197.821 E43.40303
G1 X117.842 Y197.74 E43.55971
G1 X109.148 Y197.424 E43.94455
G1 X108.382 Y197.356 E43.97857
G1 X107.738 Y197.236 E44.00755
G1 X104.065 Y196.38 E44.17438
G1 X94.795 Y194.101 E44.59666
G1 X94.059 Y193.879 E44.63066
G1 X93.436 Y193.622 E44.66048
G1 X90.184 Y192.106 E44.81919
G1 X82.193 Y188.269 E45.21132
G1 X81.518 Y187.9 E45.24535
G1 X81.032 Y187.574 E45.27124
G1 X78.335 Y185.604 E45.41898
G1 X71.636 Y180.606 E45.78871
G1 X71.044 Y180.115 E45.82273
G1 X70.699 Y179.775 E45.84416
G1 X68.607 Y177.574 E45.97848
G1 X63.376 Y171.959 E46.31795
G1 X62.676 Y171.083 E46.36756
G1 X61.139 Y168.828 E46.48828
G1 X57.44 Y163.294 E46.78273
G1 X56.93 Y162.403 E46.82814
G1 X55.825 Y160.117 E46.94046
G1 X53.051 Y154.254 E47.22738
G1 X52.695 Y153.354 E47.2702
G1 X51.954 Y151.048 E47.37734
G1 X50.177 Y145.346 E47.64154
G1 X49.972 Y144.528 E47.67884
G1 X49.602 Y142.578 E47.76664
G1 X48.739 Y137.875 E47.97816
G1 X48.648 Y137.22 E48.00741
G1 X48.517 Y135.803 E48.07036
G1 X48.203 Y132.233 E48.22889
G1 X48.176 Y131.713 E48.25193
G1 X48.155 Y130.475 E48.3067
G1 X48.113 Y127.403 E48.4426
G1 X48.122 Y126.91 E48.46442
G1 X48.337 Y122.862 E48.64374
G1 X48.377 Y122.398 E48.66434
G1 X48.812 Y118.663 E48.83068
G1 X48.873 Y118.241 E48.84954
G1 X49.453 Y114.932 E48.99815
G1 X49.523 Y114.585 E49.0138
G1 X50.095 Y112.043 E49.12906
G1 X50.166 Y111.752 E49.14231
G1 X50.78 Y109.461 E49.24724
G1 X50.853 Y109.208 E49.25888
G1 X51.481 Y107.16 E49.35364
G1 X51.554 Y106.934 E49.36415
G1 X51.7 Y106.507 E49.38411
G1 X51.7 Y70.958 E50.95666
G1 X39.3 Y70.958 E51.50518
G1 X38.532 Y70.918 E51.5392
G1 X37.772 Y70.799 E51.57323
G1 X37.029 Y70.601 E51.60724
G1 X36.31 Y70.327 E51.64128
G1 X35.624 Y69.98 E51.67529
G1 X34.977 Y69.564 E51.70931
G1 X34.377 Y69.083 E51.74333
G1 X33.83 Y68.542 E51.77736
G1 X33.342 Y67.947 E51.81141
G1 X32.919 Y67.305 E51.84542
G1 X32.564 Y66.622 E51.87947
G1 X32.283 Y65.907 E51.91345
G1 X32.077 Y65.165 E51.94751
G1 X31.949 Y64.407 E51.98152
G1 X31.9 Y63.558 E52.01914
G1 X31.9 Y44.558 E52.85962
G1 X31.94 Y43.79 E52.89364
G1 X32.059 Y43.03 E52.92767
G1 X32.257 Y42.287 E52.96168
G1 X32.531 Y41.568 E52.99572
G1 X32.878 Y40.882 E53.02973
G1 X33.294 Y40.235 E53.06376
G1 X33.775 Y39.635 E53.09777
G1 X34.316 Y39.088 E53.13181
G0 F7500 X34.708 Y39.274
G1 F1500 X35.298 Y38.815 E53.16487
G1 X35.934 Y38.42 E53.19799
G1 X36.608 Y38.096 E53.23107
G1 X37.313 Y37.846 E53.26416
G1 X38.041 Y37.672 E53.29727
G1 X38.783 Y37.577 E53.33036
G1 X39.3 Y37.558 E53.35325
G1 X195.7 Y37.558 E60.27176
G1 X196.447 Y37.598 E60.30485
G1 X197.185 Y37.717 E60.33792
G1 X197.907 Y37.915 E60.37103
G1 X198.603 Y38.188 E60.4041
G1 X199.266 Y38.535 E60.43721
G1 X199.889 Y38.95 E60.47032
G1 X200.463 Y39.429 E60.50339
G1 X200.984 Y39.966 E60.53649
G1 X201.443 Y40.556 E60.56956
G1 X201.838 Y41.192 E60.60268
G1 X202.162 Y41.866 E60.63576
G1 X202.412 Y42.571 E60.66885
G1 X202.586 Y43.299 E60.70196
G1 X202.681 Y44.041 E60.73505
G1 X202.7 Y44.558 E60.75793
G1 X202.7 Y63.558 E61.59842
G1 X202.66 Y64.305 E61.63151
G1 X202.541 Y65.043 E61.66458
G1 X202.343 Y65.765 E61.69769
G1 X202.07 Y66.461 E61.73077
G1 X201.723 Y67.124 E61.76387
G1 X201.308 Y67.747 E61.79698
G1 X200.829 Y68.321 E61.83005
G1 X200.292 Y68.842 E61.86315
G1 X199.702 Y69.301 E61.89622
G1 X199.066 Y69.696 E61.92934
G1 X198.392 Y70.02 E61.96242
G1 X197.687 Y70.27 E61.99551
G1 X196.959 Y70.444 E62.02862
G1 X196.217 Y70.539 E62.06171
G1 X195.7 Y70.558 E62.08459
G1 X182.9 Y70.558 E62.65081
G1 X182.9 Y106.583 E64.24442
G1 X183.13 Y107.261 E64.27609
G1 X183.194 Y107.459 E64.28529
G1 X183.382 Y108.073 E64.3137
G1 X183.874 Y109.707 E64.38918
G1 X183.94 Y109.943 E64.40002
G1 X184.498 Y112.063 E64.497
G1 X184.564 Y112.334 E64.50934
G1 X184.741 Y113.137 E64.54571
G1 X185.212 Y115.305 E64.64385
G1 X185.268 Y115.59 E64.6567
G1 X185.41 Y116.404 E64.69325
G1 X185.75 Y118.424 E64.78387
G1 X185.789 Y118.684 E64.7955
G1 X185.885 Y119.429 E64.82872
G1 X186.096 Y121.123 E64.90424
G1 X186.122 Y121.36 E64.91479
G1 X186.187 Y122.087 E64.94707
G1 X186.345 Y123.959 E65.03018
G1 X186.361 Y124.189 E65.04038
G1 X186.396 Y124.871 E65.07058
G1 X186.466 Y126.404 E65.13847
G1 X186.472 Y126.61 E65.14759
G1 X186.482 Y127.196 E65.17351
G1 X186.5 Y128.732 E65.24146
G1 X186.499 Y128.939 E65.25062
G1 X186.468 Y130.679 E65.3276
G1 X186.461 Y130.897 E65.33725
G1 X186.359 Y132.976 E65.42933
G1 X186.343 Y133.211 E65.43975
G1 X186.286 Y133.9 E65.47033
G1 X186.139 Y135.601 E65.54586
G1 X186.113 Y135.846 E65.55676
G1 X186.021 Y136.602 E65.59044
G1 X185.784 Y138.465 E65.67352
G1 X185.744 Y138.739 E65.68577
G1 X185.609 Y139.54 E65.7217
G1 X185.263 Y141.559 E65.81232
G1 X185.203 Y141.871 E65.82637
G1 X185.002 Y142.79 E65.86798
G1 X184.481 Y145.124 E65.97377
G1 X184.388 Y145.494 E65.99065
G1 X184.067 Y146.635 E66.04308
G1 X183.267 Y149.424 E66.17143
G1 X183.124 Y149.865 E66.19194
G1 X182.663 Y151.147 E66.2522
G1 X181.492 Y154.355 E66.40327
G1 X181.304 Y154.817 E66.42534
G1 X180.745 Y156.064 E66.48579
G1 X179.333 Y159.172 E66.6368
G1 X179.083 Y159.67 E66.66145
G1 X178.304 Y161.075 E66.73251
G1 X176.302 Y164.649 E66.91373
G1 X175.948 Y165.216 E66.94329
G1 X174.821 Y166.842 E67.03081
G1 X171.977 Y170.892 E67.24973
G1 X171.513 Y171.482 E67.28293
G1 X170.161 Y173.025 E67.37368
G1 X166.644 Y176.977 E67.6077
G1 X166.044 Y177.574 E67.64515
G1 X164.137 Y179.255 E67.7576
G1 X159.365 Y183.387 E68.03683
G1 X158.556 Y183.991 E68.08149
