;FLAVOR:Marlin
M117 Time Left 0h20m04s
;TIME:1204
;Filament used: 1.44844m
;Layer height: 0.28
;MINX:79.26
;MINY:79.26
;MINZ:0.28
;MAXX:155.74
;MAXY:155.739
;MAXZ:3.08
;POSTPROCESSED
;Generated with Cura_SteamEngine 4.10.0
M140 S75
M105
M190 S75
M104 S235
M105
M109 S235
M82 ;absolute extrusion mode
; Ender 3 Custom Start G-code
G92 E0 ; Reset Extruder
G28 ; Home all axes
G1 Z2.0 F3000 ; Move Z Axis up little to prevent scratching of Heat Bed
G1 X0.1 Y20 Z0.3 F5000.0 ; Move to start position
G1 X0.1 Y200.0 Z0.3 F1500.0 E15 ; Draw the first line
G1 X0.4 Y200.0 Z0.3 F5000.0 ; Move to side a little
G1 X0.4 Y20 Z0.3 F1500.0 E30 ; Draw the second line
G92 E0 ; Reset Extruder
G1 Z2.0 F3000 ; Move Z Axis up little to prevent scratching of Heat Bed
G1 X5 Y20 Z0.3 F5000.0 ; Move over to prevent blob squish
G92 E0
G92 E0
G1 F2700 E-6
;LAYER_COUNT:11
;LAYER:0
M107
M204 S500
M205 X8 Y8
G0 F7500 X90.533 Y90.386 Z0.28
;TYPE:SKIRT
G1 F2700 E0
G1 F1500 X90.787 Y90.136 E0.01577
G1 X91.393 Y89.557 E0.05284
G1 X91.645 Y89.323 E0.06805
G1 X92.219 Y88.807 E0.1022
G1 X92.38 Y88.667 E0.11163
G1 X92.996 Y88.143 E0.14741
G1 X93.769 Y87.513 E0.19152
G1 X94.062 Y87.283 E0.208
G1 X94.702 Y86.798 E0.24352
G1 X95.44 Y86.264 E0.28382
G1 X95.818 Y86 E0.30421
G1 X96.528 Y85.522 E0.34207
G1 X96.795 Y85.35 E0.35612
G1 X97.503 Y84.904 E0.39314
G1 X97.834 Y84.703 E0.41027
G1 X98.546 Y84.287 E0.44675
G1 X98.844 Y84.119 E0.46188
G1 X99.526 Y83.746 E0.49627
G1 X99.722 Y83.642 E0.50608
G1 X100.429 Y83.281 E0.5412
G1 X100.595 Y83.199 E0.54939
G1 X101.364 Y82.83 E0.58712
G1 X101.688 Y82.681 E0.60289
G1 X102.437 Y82.351 E0.6391
G1 X102.765 Y82.213 E0.65484
G1 X103.638 Y81.859 E0.69651
G1 X103.9 Y81.758 E0.70894
G1 X104.787 Y81.435 E0.75069
G1 X105.507 Y81.189 E0.78435
G1 X105.806 Y81.091 E0.79827
G1 X106.813 Y80.783 E0.84485
G1 X107.014 Y80.724 E0.85412
G1 X107.689 Y80.539 E0.88508
G1 X107.982 Y80.463 E0.89847
G1 X108.787 Y80.265 E0.93514
G1 X109.172 Y80.177 E0.95261
G1 X110.083 Y79.986 E0.99379
G1 X110.273 Y79.949 E1.00235
G1 X110.92 Y79.83 E1.03145
G1 X111.246 Y79.775 E1.04607
G1 X112.099 Y79.643 E1.08426
G1 X112.491 Y79.589 E1.10176
G1 X113.438 Y79.476 E1.14395
G1 X113.682 Y79.451 E1.1548
G1 X114.653 Y79.366 E1.19792
G1 X114.9 Y79.348 E1.20887
G1 X115.836 Y79.296 E1.25034
G1 X116.071 Y79.287 E1.26074
G1 X117.014 Y79.263 E1.30247
G1 X117.243 Y79.26 E1.3126
G1 X118.081 Y79.264 E1.34967
G1 X118.483 Y79.272 E1.36746
G1 X119.411 Y79.308 E1.40854
G1 X119.624 Y79.319 E1.41798
G1 X120.46 Y79.375 E1.45504
G1 X120.858 Y79.407 E1.4727
G1 X121.697 Y79.491 E1.51
G1 X122.061 Y79.533 E1.52621
G1 X122.87 Y79.638 E1.5623
G1 X123.269 Y79.697 E1.58014
G1 X124.201 Y79.852 E1.62194
G1 X124.42 Y79.891 E1.63178
G1 X125.334 Y80.07 E1.67297
G1 X125.549 Y80.116 E1.6827
G1 X126.354 Y80.298 E1.71921
G1 X126.544 Y80.344 E1.72786
G1 X127.474 Y80.583 E1.77033
G1 X127.697 Y80.644 E1.78056
G1 X128.476 Y80.869 E1.81643
G1 X129.353 Y81.144 E1.85709
G1 X129.65 Y81.241 E1.87091
G1 X129.806 Y81.294 E1.8782
G1 X130.694 Y81.608 E1.91986
G1 X130.911 Y81.688 E1.93009
G1 X131.67 Y81.983 E1.96611
G1 X132.034 Y82.13 E1.98348
G1 X132.897 Y82.497 E2.02496
G1 X133.103 Y82.588 E2.03493
G1 X133.836 Y82.925 E2.07061
G1 X134.02 Y83.012 E2.07962
G1 X134.76 Y83.377 E2.11612
G1 X135.084 Y83.543 E2.13222
G1 X135.929 Y83.994 E2.17459
G1 X136.11 Y84.094 E2.18374
G1 X136.714 Y84.438 E2.21449
G1 X136.964 Y84.585 E2.22732
G1 X137.683 Y85.02 E2.26449
G1 X138.008 Y85.224 E2.28146
G1 X138.796 Y85.738 E2.32308
G1 X138.99 Y85.869 E2.33344
G1 X139.761 Y86.407 E2.37502
G1 X140.379 Y86.858 E2.40887
G1 X140.557 Y86.992 E2.41872
G1 X141.293 Y87.562 E2.4599
G1 X141.49 Y87.72 E2.47107
G1 X142.238 Y88.339 E2.51402
G1 X142.426 Y88.499 E2.52494
G1 X143.157 Y89.144 E2.56807
G1 X143.331 Y89.303 E2.5785
G1 X144.019 Y89.948 E2.62021
G1 X144.194 Y90.118 E2.63101
G1 X144.874 Y90.799 E2.67358
G1 X145.455 Y91.406 E2.71075
G1 X145.694 Y91.665 E2.72634
G1 X146.248 Y92.283 E2.76305
G1 X146.48 Y92.55 E2.7787
G1 X146.989 Y93.154 E2.81364
G1 X147.125 Y93.321 E2.82317
G1 X147.708 Y94.053 E2.86456
G1 X147.846 Y94.23 E2.87449
G1 X148.329 Y94.875 E2.91013
G1 X148.567 Y95.202 E2.92803
G1 X149.122 Y95.996 E2.97088
G1 X149.251 Y96.187 E2.98107
G1 X149.699 Y96.87 E3.01721
G1 X149.823 Y97.065 E3.02743
G1 X150.317 Y97.869 E3.06917
G1 X150.427 Y98.054 E3.07869
G1 X150.844 Y98.779 E3.11569
G1 X151.006 Y99.07 E3.13042
G1 X151.398 Y99.801 E3.16712
G1 X151.56 Y100.114 E3.18271
G1 X151.908 Y100.812 E3.21721
G1 X152.004 Y101.012 E3.22702
G1 X152.337 Y101.732 E3.26211
G1 X152.507 Y102.111 E3.28049
G1 X152.911 Y103.065 E3.32632
G1 X153.036 Y103.377 E3.34119
G1 X153.32 Y104.113 E3.37608
G1 X153.388 Y104.296 E3.38472
G1 X153.651 Y105.032 E3.41929
G1 X153.725 Y105.249 E3.42943
G1 X154.019 Y106.155 E3.47157
G1 X154.088 Y106.378 E3.4819
G1 X154.314 Y107.156 E3.51773
G1 X154.411 Y107.506 E3.5338
G1 X154.615 Y108.293 E3.56976
G1 X154.711 Y108.687 E3.5877
G1 X154.92 Y109.624 E3.63017
G1 X154.961 Y109.819 E3.63899
G1 X155.096 Y110.509 E3.67009
G1 X155.154 Y110.832 E3.6846
G1 X155.288 Y111.638 E3.72075
G1 X155.337 Y111.961 E3.7352
G1 X155.432 Y112.651 E3.76601
G1 X155.475 Y113.007 E3.78187
G1 X155.577 Y113.968 E3.82462
G1 X155.611 Y114.345 E3.84137
G1 X155.66 Y115.029 E3.8717
G1 X155.68 Y115.376 E3.88708
G1 X155.715 Y116.125 E3.92025
G1 X155.722 Y116.315 E3.92866
G1 X155.729 Y116.642 E3.94312
G1 X155.74 Y117.384 E3.97595
G1 X155.74 Y117.614 E3.98613
G1 X155.727 Y118.503 E4.02546
G1 X155.721 Y118.724 E4.03524
G1 X155.683 Y119.609 E4.07442
G1 X155.669 Y119.839 E4.08461
G1 X155.611 Y120.637 E4.12001
G1 X155.593 Y120.847 E4.12933
G1 X155.498 Y121.799 E4.17165
G1 X155.472 Y122.026 E4.18176
G1 X155.386 Y122.687 E4.21125
G1 X155.34 Y123.012 E4.22577
G1 X155.215 Y123.814 E4.26167
G1 X155.149 Y124.199 E4.27895
G1 X154.967 Y125.149 E4.32174
G1 X154.923 Y125.362 E4.33136
G1 X154.745 Y126.166 E4.36779
G1 X154.658 Y126.535 E4.38456
G1 X154.47 Y127.277 E4.41842
G1 X154.415 Y127.481 E4.42776
G1 X154.189 Y128.28 E4.4645
G1 X154.078 Y128.654 E4.48175
G1 X153.794 Y129.545 E4.52312
G1 X153.727 Y129.743 E4.53237
G1 X153.468 Y130.486 E4.56718
G1 X153.393 Y130.694 E4.57696
G1 X153.047 Y131.598 E4.61977
G1 X152.965 Y131.804 E4.62958
G1 X152.589 Y132.702 E4.67265
G1 X152.499 Y132.907 E4.68255
G1 X152.155 Y133.665 E4.71937
G1 X151.999 Y133.995 E4.73552
G1 X151.579 Y134.847 E4.77754
G1 X151.484 Y135.033 E4.78678
G1 X151.155 Y135.657 E4.81798
G1 X150.992 Y135.955 E4.83301
G1 X150.595 Y136.658 E4.86872
G1 X150.395 Y137 E4.88625
G1 X149.973 Y137.692 E4.9221
G1 X149.779 Y138.001 E4.93824
G1 X149.274 Y138.778 E4.97924
G1 X149.136 Y138.983 E4.99017
G1 X148.687 Y139.628 E5.02493
G1 X148.578 Y139.781 E5.03324
G1 X148.078 Y140.462 E5.07062
G1 X147.873 Y140.733 E5.08565
G1 X147.36 Y141.389 E5.12249
G1 X147.113 Y141.695 E5.13988
G1 X146.516 Y142.409 E5.18105
G1 X146.366 Y142.583 E5.19121
G1 X145.891 Y143.117 E5.22283
G1 X145.697 Y143.33 E5.23557
G1 X145.134 Y143.932 E5.27203
G1 X144.871 Y144.205 E5.2888
G1 X144.256 Y144.821 E5.32731
G1 X144.026 Y145.043 E5.34145
G1 X143.347 Y145.683 E5.38272
G1 X143.157 Y145.856 E5.39409
G1 X142.438 Y146.488 E5.43644
G1 X141.8 Y147.027 E5.47338
G1 X141.519 Y147.256 E5.48942
G1 X140.884 Y147.757 E5.5252
G1 X140.735 Y147.872 E5.53353
G1 X140.07 Y148.37 E5.57028
G1 X139.813 Y148.556 E5.58431
G1 X139.254 Y148.951 E5.61459
G1 X138.984 Y149.135 E5.62904
G1 X138.216 Y149.644 E5.6698
G1 X138.019 Y149.77 E5.68014
G1 X137.355 Y150.182 E5.71471
G1 X137.192 Y150.28 E5.72312
G1 X136.447 Y150.717 E5.76133
G1 X136.126 Y150.898 E5.77763
G1 X135.285 Y151.354 E5.81995
G1 X135.076 Y151.463 E5.83038
G1 X134.343 Y151.832 E5.86668
G1 X133.997 Y151.999 E5.88368
G1 X133.143 Y152.394 E5.9253
G1 X132.963 Y152.475 E5.93403
G1 X132.32 Y152.752 E5.965
G1 X132.002 Y152.884 E5.98023
G1 X131.135 Y153.228 E6.02149
G1 X130.909 Y153.314 E6.03219
G1 X130.173 Y153.58 E6.06681
G1 X129.482 Y153.815 E6.0991
G1 X129.16 Y153.92 E6.11408
G1 X128.284 Y154.189 E6.15461
G1 X127.972 Y154.279 E6.16898
G1 X127.317 Y154.459 E6.19903
G1 X126.996 Y154.543 E6.21371
G1 X126.178 Y154.743 E6.25096
G1 X125.809 Y154.827 E6.2677
G1 X124.878 Y155.023 E6.30978
G1 X124.625 Y155.072 E6.32118
G1 X123.706 Y155.234 E6.36246
G1 X123.489 Y155.269 E6.37219
G1 X122.677 Y155.388 E6.40849
G1 X122.353 Y155.431 E6.42295
G1 X121.661 Y155.514 E6.45378
G1 X121.314 Y155.55 E6.46921
G1 X120.494 Y155.623 E6.50563
G1 X120.13 Y155.65 E6.52177
G1 X119.278 Y155.699 E6.55952
G1 X118.947 Y155.713 E6.57418
G1 X118.178 Y155.735 E6.60821
G1 X117.965 Y155.738 E6.61763
G1 X117.109 Y155.739 E6.6555
G1 X116.791 Y155.734 E6.66957
G1 X116.097 Y155.715 E6.70028
G1 X115.796 Y155.702 E6.71361
G1 X114.938 Y155.654 E6.75162
G1 X114.583 Y155.629 E6.76736
G1 X113.77 Y155.558 E6.80347
G1 X113.396 Y155.519 E6.8201
G1 X112.473 Y155.408 E6.86122
G1 X112.265 Y155.38 E6.87051
G1 X111.506 Y155.268 E6.90445
G1 X111.295 Y155.234 E6.9139
G1 X110.527 Y155.099 E6.94839
G1 X110.333 Y155.063 E6.95712
G1 X109.417 Y154.878 E6.99846
G1 X109.165 Y154.822 E7.00988
G1 X108.229 Y154.599 E7.05244
G1 X107.396 Y154.381 E7.09053
G1 X107.055 Y154.286 E7.10619
G1 X106.27 Y154.054 E7.1424
G1 X105.893 Y153.937 E7.15986
G1 X105.135 Y153.686 E7.19519
G1 X104.948 Y153.621 E7.20394
G1 X104.083 Y153.31 E7.24461
G1 X103.841 Y153.218 E7.25606
G1 X102.963 Y152.869 E7.29785
G1 X102.751 Y152.782 E7.30799
G1 X101.892 Y152.411 E7.34938
G1 X101.677 Y152.314 E7.35982
G1 X100.966 Y151.981 E7.39455
G1 X100.798 Y151.9 E7.4028
G1 X100.099 Y151.552 E7.43734
G1 X99.917 Y151.458 E7.4464
G1 X99.201 Y151.077 E7.48228
G1 X98.887 Y150.905 E7.49811
G1 X98.185 Y150.504 E7.53388
G1 X97.839 Y150.3 E7.55164
G1 X97.113 Y149.852 E7.58938
G1 X96.824 Y149.668 E7.60454
G1 X96.134 Y149.214 E7.64108
G1 X95.817 Y148.998 E7.65804
G1 X95.169 Y148.541 E7.69312
G1 X95.018 Y148.432 E7.70136
G1 X94.367 Y147.949 E7.73722
G1 X94.06 Y147.714 E7.75432
G1 X93.398 Y147.189 E7.79169
G1 X93.117 Y146.958 E7.80779
G1 X92.413 Y146.362 E7.84859
G1 X92.237 Y146.208 E7.85893
G1 X91.66 Y145.689 E7.89326
G1 X91.523 Y145.563 E7.9015
G1 X90.956 Y145.028 E7.93598
G1 X90.804 Y144.881 E7.94534
G1 X90.21 Y144.289 E7.98243
G1 X89.991 Y144.063 E7.99636
G1 X89.454 Y143.496 E8.0309
G1 X89.314 Y143.344 E8.04004
G1 X88.74 Y142.704 E8.07807
G1 X88.523 Y142.454 E8.09272
G1 X88.025 Y141.864 E8.12687
G1 X87.899 Y141.711 E8.13564
G1 X87.393 Y141.078 E8.17149
G1 X87.184 Y140.809 E8.18655
G1 X86.758 Y140.244 E8.21786
G1 X86.572 Y139.989 E8.23182
G1 X86.062 Y139.272 E8.27074
G1 X85.858 Y138.973 E8.28675
G1 X85.333 Y138.179 E8.32886
G1 X85.209 Y137.986 E8.33901
G1 X84.775 Y137.285 E8.37548
G1 X84.575 Y136.95 E8.39274
G1 X84.177 Y136.259 E8.42801
G1 X83.993 Y135.929 E8.44473
G1 X83.597 Y135.191 E8.48178
G1 X83.427 Y134.861 E8.4982
G1 X83.054 Y134.108 E8.53537
G1 X82.903 Y133.792 E8.55086
G1 X82.557 Y133.034 E8.58772
G1 X82.412 Y132.706 E8.60358
G1 X82.098 Y131.959 E8.63943
G1 X82.021 Y131.768 E8.64854
G1 X81.68 Y130.893 E8.69008
G1 X81.594 Y130.661 E8.70103
G1 X81.308 Y129.85 E8.73907
G1 X81.201 Y129.53 E8.75399
G1 X80.943 Y128.723 E8.79147
G1 X80.844 Y128.393 E8.80671
G1 X80.617 Y127.599 E8.84324
G1 X80.524 Y127.253 E8.85909
G1 X80.331 Y126.486 E8.89408
G1 X80.289 Y126.31 E8.90208
G1 X80.11 Y125.521 E8.93787
G1 X80.036 Y125.174 E8.95357
G1 X79.909 Y124.524 E8.98286
G1 X79.848 Y124.185 E8.9981
G1 X79.713 Y123.378 E9.03429
G1 X79.661 Y123.031 E9.04982
G1 X79.572 Y122.378 E9.07897
G1 X79.531 Y122.049 E9.09364
G1 X79.437 Y121.188 E9.13195
G1 X79.407 Y120.852 E9.14687
G1 X79.344 Y120.041 E9.18285
G1 X79.32 Y119.665 E9.19952
G1 X79.284 Y118.879 E9.23433
G1 X79.278 Y118.681 E9.24309
G1 X79.261 Y117.864 E9.27924
G1 X79.26 Y117.488 E9.29587
G1 X79.272 Y116.527 E9.33839
G1 X79.278 Y116.294 E9.3487
G1 X79.312 Y115.487 E9.38443
G1 X79.335 Y115.1 E9.40158
G1 X79.397 Y114.262 E9.43875
G1 X79.432 Y113.876 E9.45589
G1 X79.532 Y112.94 E9.49753
G1 X79.562 Y112.696 E9.50841
G1 X79.693 Y111.753 E9.55052
G1 X79.728 Y111.527 E9.56064
G1 X79.871 Y110.687 E9.59833
G1 X79.934 Y110.348 E9.61358
G1 X80.101 Y109.52 E9.65095
G1 X80.182 Y109.149 E9.66775
G1 X80.364 Y108.375 E9.70292
G1 X80.456 Y108.004 E9.71983
G1 X80.656 Y107.257 E9.75404
G1 X80.715 Y107.05 E9.76356
G1 X80.983 Y106.149 E9.80514
G1 X81.056 Y105.916 E9.81594
G1 X81.36 Y105 E9.85863
G1 X81.427 Y104.807 E9.86767
G1 X81.672 Y104.132 E9.89944
G1 X81.783 Y103.84 E9.91326
G1 X82.078 Y103.091 E9.94887
G1 X82.211 Y102.77 E9.96424
G1 X82.521 Y102.048 E9.99899
G1 X82.611 Y101.846 E10.00878
G1 X83.008 Y100.989 E10.05056
G1 X83.112 Y100.773 E10.06116
G1 X83.543 Y99.913 E10.10371
G1 X83.666 Y99.678 E10.11545
G1 X84.118 Y98.848 E10.15726
G1 X84.218 Y98.67 E10.16629
G1 X84.641 Y97.939 E10.20365
G1 X84.848 Y97.596 E10.22137
G1 X85.365 Y96.773 E10.26436
G1 X85.597 Y96.416 E10.2832
G1 X86.129 Y95.631 E10.32515
G1 X86.276 Y95.422 E10.33645
G1 X86.837 Y94.65 E10.37866
G1 X86.984 Y94.455 E10.38947
G1 X87.582 Y93.684 E10.43263
G1 X87.731 Y93.497 E10.4432
G1 X88.333 Y92.768 E10.48503
G1 X88.491 Y92.583 E10.49579
G1 X89.14 Y91.848 E10.53916
G1 X89.695 Y91.249 E10.57529
G1 X89.945 Y90.986 E10.59134
G1 X90.533 Y90.386 E10.6285
G0 F7500 X90.815 Y90.67
G1 F1500 X91.063 Y90.425 E10.64392
G1 X91.665 Y89.85 E10.68075
G1 X91.913 Y89.621 E10.69568
G1 X92.487 Y89.105 E10.72982
G1 X92.639 Y88.971 E10.73879
G1 X93.255 Y88.447 E10.77456
G1 X94.018 Y87.826 E10.81808
G1 X94.304 Y87.602 E10.83415
G1 X94.944 Y87.117 E10.86967
G1 X95.087 Y87.011 E10.87754
G1 X95.754 Y86.531 E10.9139
G1 X96.042 Y86.331 E10.92941
G1 X96.746 Y85.858 E10.96692
G1 X97.008 Y85.689 E10.98072
G1 X97.712 Y85.245 E11.01753
G1 X98.036 Y85.048 E11.03431
G1 X98.744 Y84.635 E11.07057
G1 X99.036 Y84.47 E11.0854
G1 X99.718 Y84.097 E11.11979
G1 X99.904 Y83.998 E11.12911
G1 X100.611 Y83.637 E11.16423
G1 X100.768 Y83.559 E11.17198
G1 X101.532 Y83.193 E11.20946
G1 X101.85 Y83.047 E11.22493
G1 X102.594 Y82.719 E11.2609
G1 X102.915 Y82.583 E11.27632
G1 X103.788 Y82.229 E11.318
G1 X104.037 Y82.134 E11.32979
G1 X105.078 Y81.756 E11.37878
G1 X105.74 Y81.533 E11.40968
G1 X106.042 Y81.436 E11.42371
G1 X106.93 Y81.165 E11.46478
G1 X107.121 Y81.11 E11.47357
G1 X107.79 Y80.926 E11.50426
G1 X108.078 Y80.852 E11.51742
G1 X108.879 Y80.655 E11.55391
G1 X109.255 Y80.568 E11.57098
G1 X110.166 Y80.377 E11.61215
G1 X110.346 Y80.342 E11.62027
G1 X110.989 Y80.224 E11.64918
G1 X111.307 Y80.17 E11.66345
G1 X112.155 Y80.039 E11.70141
G1 X112.538 Y79.986 E11.71851
G1 X113.485 Y79.873 E11.7607
G1 X113.717 Y79.849 E11.77102
G1 X114.688 Y79.764 E11.81414
G1 X114.923 Y79.747 E11.82456
G1 X115.859 Y79.695 E11.86603
G1 X116.081 Y79.686 E11.87586
G1 X117.024 Y79.662 E11.91759
G1 X117.241 Y79.66 E11.92719
G1 X118.075 Y79.664 E11.96408
G1 X118.468 Y79.672 E11.98147
G1 X119.396 Y79.708 E12.02255
G1 X119.598 Y79.718 E12.0315
G1 X120.429 Y79.774 E12.06834
G1 X120.818 Y79.805 E12.0856
G1 X121.653 Y79.889 E12.12272
G1 X122.009 Y79.93 E12.13858
G1 X123.015 Y80.062 E12.18346
G1 X123.203 Y80.091 E12.19187
G1 X124.135 Y80.246 E12.23367
G1 X124.343 Y80.284 E12.24302
G1 X125.257 Y80.463 E12.28422
G1 X125.461 Y80.506 E12.29344
G1 X126.264 Y80.688 E12.32987
G1 X126.445 Y80.732 E12.33811
G1 X127.375 Y80.971 E12.38058
G1 X127.586 Y81.029 E12.39026
G1 X128.539 Y81.306 E12.43416
G1 X129.325 Y81.555 E12.47064
G1 X129.673 Y81.671 E12.48686
G1 X130.561 Y81.985 E12.52853
G1 X130.766 Y82.061 E12.5382
G1 X131.522 Y82.354 E12.57407
G1 X131.878 Y82.498 E12.59105
G1 X132.741 Y82.865 E12.63254
G1 X132.936 Y82.952 E12.64198
G1 X133.669 Y83.289 E12.67767
G1 X133.843 Y83.371 E12.68618
G1 X134.579 Y83.734 E12.72248
G1 X134.895 Y83.896 E12.73819
G1 X135.74 Y84.347 E12.78056
G1 X135.913 Y84.442 E12.78929
G1 X136.511 Y84.783 E12.81974
G1 X136.757 Y84.928 E12.83238
G1 X137.473 Y85.361 E12.86939
G1 X137.79 Y85.559 E12.88592
G1 X138.578 Y86.073 E12.92754
G1 X138.762 Y86.197 E12.93736
G1 X139.525 Y86.73 E12.97853
G1 X140.143 Y87.181 E13.01237
G1 X140.312 Y87.308 E13.02172
G1 X141.048 Y87.878 E13.0629
G1 X141.235 Y88.028 E13.07351
G1 X141.983 Y88.647 E13.11646
G1 X142.161 Y88.799 E13.12681
G1 X142.892 Y89.444 E13.16994
G1 X143.057 Y89.594 E13.1798
